desertorosso.CUBE
#Created by: Adobe Photoshop Export Color Lookup Plugin
TITLE "desertorosso_v5.psd"
#LUT size
LUT_3D_SIZE 8
#data domain
DOMAIN_MIN 0.0 0.0 0.0
DOMAIN_MAX 1.0 1.0 1.0
#LUT data points
0.000000 0.000000 0.000000
0.097443 0.053802 0.058472
0.225281 0.126495 0.123688
0.356293 0.203186 0.193054
0.477386 0.279175 0.259247
0.582611 0.347168 0.316437
0.667053 0.403717 0.361847
0.693787 0.428894 0.396118
0.074432 0.079834 0.040131
0.077087 0.059448 0.036957
0.252014 0.157684 0.124939
0.397247 0.247375 0.210144
0.509125 0.317657 0.273315
0.598511 0.372803 0.321869
0.667114 0.415771 0.358521
0.689270 0.436584 0.385925
0.161407 0.169556 0.079468
0.181427 0.149872 0.071289
0.174042 0.134613 0.095947
0.325409 0.213684 0.169922
0.499847 0.315033 0.263489
0.599976 0.376312 0.319122
0.660614 0.413391 0.351593
0.683136 0.433258 0.372528
0.249542 0.261047 0.108917
0.291229 0.241058 0.087097
0.280609 0.222504 0.098083
0.274200 0.205627 0.139526
0.376587 0.256714 0.201965
0.567688 0.361511 0.300537
0.651306 0.409729 0.346558
0.678955 0.428009 0.363953
0.338226 0.353638 0.146545
0.384949 0.330200 0.117645
0.386871 0.314819 0.118103
0.384888 0.302155 0.144531
0.372284 0.279388 0.192871
0.462524 0.320129 0.249908
0.599731 0.388306 0.320099
0.677765 0.427338 0.361359
0.423157 0.444794 0.184113
0.468109 0.424377 0.152222
0.491547 0.413483 0.143616
0.486023 0.392212 0.158447
0.479004 0.371613 0.195068
0.463104 0.348206 0.244415
0.541351 0.377777 0.293945
0.630707 0.413849 0.338989
0.503174 0.533905 0.220917
0.545105 0.517212 0.185883
0.581329 0.512360 0.173676
0.583099 0.486511 0.169678
0.581940 0.469666 0.192841
0.566986 0.438751 0.236237
0.545563 0.410248 0.289917
0.608643 0.426727 0.331543
0.577301 0.620453 0.256744
0.615356 0.607880 0.218079
0.655762 0.603302 0.199615
0.664795 0.589630 0.196136
0.670135 0.562378 0.198608
0.668396 0.543854 0.217804
0.646118 0.500946 0.267365
0.621033 0.468170 0.320740
0.044403 0.053619 0.069489
0.050018 0.037689 0.068237
0.165222 0.053131 0.170074
0.314941 0.119598 0.207458
0.450867 0.224030 0.263397
0.567139 0.311920 0.320526
0.667664 0.375732 0.366150
0.699463 0.407837 0.418365
0.055634 0.084442 0.078796
0.085358 0.089264 0.092804
0.188019 0.137878 0.147797
0.322723 0.209930 0.211548
0.453308 0.281921 0.274811
0.569214 0.350006 0.331879
0.664978 0.408630 0.378326
0.704620 0.444733 0.426971
0.101776 0.276154 0.101105
0.162506 0.185425 0.134064
0.161987 0.147705 0.128662
0.339874 0.238739 0.207306
0.478912 0.314240 0.274780
0.584503 0.376556 0.330109
0.664734 0.422089 0.368927
0.697998 0.456604 0.410156
0.208710 0.343048 0.124237
0.250000 0.271698 0.175537
0.275909 0.249847 0.155731
0.265137 0.222931 0.175812
0.412628 0.295624 0.246185
0.570068 0.372772 0.315857
0.655365 0.417816 0.356720
0.688110 0.444458 0.384308
0.305237 0.398041 0.168243
0.340363 0.365906 0.213531
0.385254 0.350891 0.189484
0.380646 0.327118 0.190155
0.369171 0.299316 0.226318
0.464142 0.340424 0.279053
0.629791 0.412933 0.345184
0.685394 0.440582 0.373993
0.391632 0.479645 0.213226
0.427582 0.459290 0.250580
0.477844 0.442322 0.218933
0.486206 0.426239 0.211487
0.486633 0.408508 0.230621
0.466370 0.370697 0.274170
0.545929 0.400177 0.321930
0.659698 0.439972 0.364899
0.471710 0.558167 0.257050
0.510010 0.550903 0.286713
0.557770 0.536896 0.252441
0.585510 0.531158 0.242462
0.588867 0.502991 0.240295
0.581085 0.477936 0.268616
0.557709 0.438812 0.311737
0.620544 0.462433 0.361389
0.546387 0.635681 0.296997
0.586761 0.640228 0.321869
0.630524 0.629669 0.284729
0.671356 0.631958 0.271027
0.676788 0.609314 0.267334
0.682098 0.582397 0.266693
0.666260 0.543671 0.297638
0.640198 0.500854 0.339508
0.096985 0.113525 0.148315
0.091858 0.090485 0.136230
0.109924 0.083954 0.149475
0.237579 0.064026 0.286438
0.406464 0.103546 0.360687
0.551453 0.199036 0.374908
0.674042 0.289337 0.420258
0.720673 0.344696 0.471100
0.108521 0.158600 0.176666
0.136749 0.150726 0.172119
0.148499 0.138733 0.169800
0.276276 0.137634 0.282074
0.428864 0.210846 0.311188
0.559143 0.308807 0.355072
0.670227 0.374359 0.407013
0.719604 0.414734 0.472107
0.124664 0.190369 0.173920
0.143402 0.182007 0.177155
0.187531 0.193512 0.198517
0.293091 0.237061 0.250305
0.429993 0.309357 0.311615
0.556427 0.372314 0.365173
0.663635 0.428955 0.410126
0.723236 0.492584 0.489685
0.112396 0.412506 0.204132
0.171631 0.370636 0.194031
0.262573 0.296478 0.236450
0.264618 0.251068 0.231689
0.436676 0.329651 0.296936
0.565857 0.389069 0.347412
0.662689 0.440338 0.391479
0.715179 0.518402 0.463837
0.232635 0.539520 0.228851
0.282623 0.450195 0.214905
0.354492 0.383667 0.281403
0.381836 0.362732 0.265961
0.370758 0.328552 0.279602
0.507141 0.385345 0.332825
0.643555 0.435150 0.374176
0.698975 0.473480 0.409088
0.333130 0.607880 0.237579
0.387665 0.506592 0.257294
0.442169 0.476440 0.320953
0.489319 0.466064 0.299683
0.490662 0.441193 0.295044
0.475494 0.405151 0.322388
0.559753 0.438354 0.366699
0.694519 0.474243 0.395752
0.438049 0.647217 0.277283
0.474091 0.587006 0.300659
0.526733 0.570312 0.357025
0.579285 0.559387 0.328430
0.592377 0.546906 0.323975
0.596466 0.523926 0.327576
0.573761 0.476898 0.356232
0.638641 0.508972 0.405792
0.522217 0.689972 0.314728
0.552765 0.666748 0.340271
0.605804 0.662384 0.392029
0.655029 0.654236 0.360291
0.686310 0.653839 0.352966
0.691498 0.628571 0.349243
0.688751 0.593170 0.352966
0.662048 0.542816 0.381226
0.144135 0.170685 0.228699
0.133728 0.139496 0.212646
0.146210 0.134735 0.213074
0.166901 0.119781 0.233978
0.289673 0.108368 0.369690
0.502655 0.131165 0.517548
0.666504 0.175201 0.568634
0.747314 0.243958 0.584229
0.156860 0.223267 0.263580
0.187347 0.213440 0.256317
0.186584 0.186462 0.242218
0.210083 0.177490 0.257904
0.358521 0.158936 0.405396
0.534210 0.196625 0.481720
0.678833 0.263092 0.511261
0.743073 0.345917 0.547607
0.166718 0.270264 0.281525
0.199799 0.268005 0.288086
0.239471 0.257324 0.281128
0.254883 0.244293 0.278259
0.395844 0.248230 0.398010
0.549469 0.311371 0.426300
0.678070 0.379364 0.473663
0.742310 0.463898 0.547699
0.187469 0.303467 0.272614
0.215118 0.294434 0.277771
0.245483 0.289825 0.284943
0.301605 0.308289 0.313690
0.411560 0.353607 0.364197
0.545868 0.423615 0.421753
0.667999 0.480438 0.477081
0.743835 0.564087 0.567413
0.196411 0.513702 0.340118
0.203857 0.511078 0.311707
0.261841 0.473633 0.293793
0.377258 0.413177 0.349976
0.383301 0.368927 0.347107
0.541687 0.435486 0.393311
0.659576 0.485626 0.429749
0.735748 0.583618 0.532593
0.243622 0.651489 0.313934
0.294434 0.623932 0.309235
0.371857 0.557007 0.309906
0.467590 0.501251 0.392120
0.497803 0.482880 0.381958
0.488739 0.445374 0.386200
0.611298 0.501801 0.428314
0.718719 0.542786 0.451630
0.382019 0.736908 0.373505
0.396912 0.694458 0.324677
0.479401 0.615356 0.351196
0.552246 0.593079 0.432312
0.602173 0.587982 0.415405
0.607544 0.565247 0.409363
0.591858 0.520752 0.419037
0.664978 0.553467 0.454102
0.472626 0.791290 0.380707
0.500671 0.741333 0.354004
0.563843 0.697418 0.390717
0.633514 0.687592 0.467590
0.688477 0.682861 0.443756
0.705261 0.674103 0.441010
0.711090 0.649231 0.432953
0.687103 0.591095 0.441132
0.204773 0.237915 0.315887
0.195160 0.205231 0.299011
0.194000 0.190338 0.293396
0.214172 0.195312 0.298248
0.236420 0.175018 0.324249
0.360291 0.156189 0.466644
0.565796 0.156891 0.622009
0.751923 0.206726 0.717316
0.215393 0.293304 0.354248
0.243958 0.281311 0.345367
0.235321 0.243225 0.323456
0.253754 0.241882 0.326385
0.278290 0.220642 0.351868
0.415192 0.188599 0.497772
0.638306 0.223816 0.643005
0.761200 0.275146 0.679565
0.227539 0.347443 0.382660
0.256958 0.340515 0.382507
0.296692 0.327393 0.372101
0.296539 0.297272 0.355316
0.323639 0.287079 0.373749
0.484344 0.270569 0.525482
0.666595 0.303558 0.609619
0.765625 0.366547 0.641205
0.225647 0.376495 0.377075
0.266479 0.387665 0.398468
0.310059 0.384064 0.403687
0.355927 0.375153 0.399414
0.372803 0.360687 0.397308
0.526062 0.366791 0.518982
0.679077 0.419098 0.560760
0.763306 0.526154 0.625336
0.254761 0.420685 0.373993
0.290344 0.411072 0.381226
0.323700 0.408051 0.390686
0.362549 0.408966 0.403381
0.425568 0.431793 0.436737
0.539948 0.483521 0.490356
0.671844 0.553040 0.555756
0.764801 0.634430 0.641266
0.265686 0.615540 0.441376
0.293182 0.612061 0.445068
0.303345 0.614258 0.417572
0.363281 0.582520 0.397552
0.501404 0.533783 0.469849
0.511017 0.494751 0.468048
0.655426 0.561554 0.502533
0.750671 0.631927 0.582367
0.262817 0.767914 0.409821
0.309357 0.739349 0.396393
0.371826 0.714325 0.394073
0.472656 0.665802 0.410370
0.588043 0.623840 0.509003
0.622314 0.610413 0.503815
0.614624 0.570648 0.500488
0.723633 0.621033 0.526031
0.398193 0.819824 0.445221
0.429901 0.804810 0.435577
0.472717 0.783173 0.409607
0.578888 0.726837 0.450653
0.670593 0.718536 0.546021
0.722839 0.717346 0.536926
0.730194 0.697510 0.530670
0.714661 0.645508 0.526428
0.265076 0.306824 0.405670
0.257568 0.272888 0.387451
0.247192 0.249054 0.376526
0.261566 0.252625 0.380859
0.284943 0.256500 0.385559
0.307129 0.225250 0.419006
0.434357 0.203339 0.566589
0.620789 0.181824 0.717407
0.275177 0.362518 0.445435
0.302673 0.350769 0.435974
0.293732 0.310303 0.410919
0.297455 0.294525 0.407776
0.323975 0.299225 0.412781
0.349152 0.264099 0.449280
0.488373 0.231598 0.598450
0.705353 0.245667 0.750183
0.288147 0.421692 0.480072
0.315796 0.413818 0.477295
0.355499 0.398743 0.464752
0.345703 0.356140 0.438965
0.368591 0.355438 0.443085
0.395966 0.328918 0.473206
0.546265 0.289703 0.625458
0.769684 0.341583 0.762573
0.296539 0.469757 0.494598
0.328033 0.468292 0.502930
0.370026 0.461731 0.503418
0.415436 0.448273 0.493286
0.415527 0.416290 0.475311
0.445007 0.403107 0.496613
0.618317 0.391785 0.650452
0.777863 0.442078 0.727600
0.303955 0.497742 0.483734
0.328705 0.499725 0.498779
0.379395 0.508789 0.518127
0.429382 0.506409 0.524811
0.480560 0.500000 0.523804
0.498016 0.482697 0.523468
0.665619 0.493164 0.647217
0.782806 0.576416 0.699463
0.321014 0.536743 0.473480
0.358185 0.531128 0.484467
0.400604 0.527069 0.495911
0.441833 0.528839 0.510132
0.488708 0.535767 0.528717
0.556335 0.561279 0.565094
0.676422 0.619019 0.625610
0.786285 0.700806 0.708801
0.328369 0.717926 0.534546
0.360596 0.716095 0.544434
0.393433 0.717804 0.550079
0.405823 0.724487 0.522766
0.473694 0.695984 0.504730
0.632477 0.659424 0.595306
0.645905 0.627991 0.597626
0.772125 0.698517 0.652191
0.324432 0.863342 0.525604
0.335205 0.859558 0.497009
0.386932 0.829956 0.481476
0.457855 0.808167 0.481720
0.581970 0.779022 0.514740
0.715820 0.753296 0.631195
0.755066 0.745636 0.631226
0.746979 0.705200 0.631165
0.326721 0.377136 0.497253
0.319580 0.341522 0.476959
0.311676 0.316620 0.467438
0.313141 0.309937 0.464661
0.331207 0.313843 0.469482
0.357727 0.317810 0.474304
0.380066 0.275299 0.516632
0.510376 0.251373 0.667725
0.336273 0.432983 0.538269
0.363007 0.421814 0.528595
0.354156 0.379456 0.500488
0.345062 0.348999 0.490356
0.367493 0.353607 0.495941
0.396057 0.356750 0.502686
0.422363 0.308929 0.548431
0.564850 0.274597 0.701782
0.349152 0.494690 0.574768
0.375916 0.484985 0.570923
0.415100 0.471588 0.560333
0.405518 0.425995 0.529144
0.411896 0.408905 0.526855
0.442413 0.414154 0.532288
0.470612 0.370605 0.575104
0.623993 0.328003 0.732117
0.361115 0.551819 0.601105
0.390656 0.549408 0.608276
0.430389 0.538513 0.601868
0.476685 0.523102 0.589417
0.466187 0.477509 0.561218
0.491516 0.476898 0.565948
0.521545 0.444946 0.600372
0.684570 0.412048 0.753510
0.367889 0.597626 0.610229
0.398621 0.594635 0.617798
0.442627 0.592926 0.625854
0.492371 0.588623 0.629089
0.542603 0.575867 0.619904
0.542725 0.542816 0.602051
0.574097 0.524719 0.626404
0.760742 0.520905 0.781555
0.382660 0.616547 0.587891
0.409729 0.621796 0.605591
0.447449 0.627747 0.624573
0.501709 0.635590 0.642822
0.556824 0.635315 0.651886
0.612762 0.631409 0.654144
0.630005 0.608887 0.656311
0.798492 0.637604 0.775970
0.386108 0.649170 0.569672
0.424042 0.648224 0.584290
0.468323 0.648254 0.599670
0.516968 0.650116 0.616211
0.567963 0.656219 0.635559
0.622223 0.668823 0.659821
0.692627 0.695465 0.697601
0.808228 0.766357 0.772003
0.389526 0.814972 0.622498
0.422791 0.817017 0.635406
0.459961 0.821838 0.648315
0.496857 0.829773 0.656738
0.510315 0.841766 0.628052
0.591339 0.813721 0.614746
0.769318 0.790680 0.726471
0.786407 0.767395 0.732849
0.389587 0.449097 0.590485
0.382660 0.411926 0.568268
0.374847 0.384674 0.558502
0.368256 0.368225 0.549622
0.381561 0.372314 0.554688
0.403564 0.376251 0.559692
0.430023 0.374084 0.570892
0.454865 0.325256 0.616913
0.399323 0.504639 0.631012
0.424652 0.494446 0.623566
0.416107 0.450073 0.591614
0.406921 0.417999 0.581299
0.414734 0.409515 0.580536
0.440155 0.414215 0.585785
0.466949 0.407562 0.601501
0.497528 0.354340 0.649963
0.412048 0.570251 0.672089
0.437195 0.557526 0.666626
0.476471 0.545227 0.655762
0.466736 0.497345 0.620972
0.456451 0.462372 0.610168
0.485382 0.468719 0.617340
0.514984 0.466370 0.630432
0.547302 0.412659 0.679077
0.426636 0.634033 0.707947
0.452332 0.623779 0.704468
0.491180 0.613342 0.700256
0.538483 0.599243 0.688568
0.528107 0.550415 0.654358
0.535706 0.532227 0.652313
0.569031 0.537842 0.658081
0.600403 0.486237 0.706696
0.433289 0.679993 0.717041
0.463470 0.679169 0.726715
0.507111 0.678711 0.735901
0.555023 0.669586 0.732025
0.606293 0.654449 0.720734
0.595306 0.606628 0.690369
0.622040 0.605560 0.695282
0.655121 0.566986 0.734253
0.439545 0.725250 0.724274
0.471100 0.726379 0.736359
0.514862 0.723633 0.744232
0.567169 0.723419 0.753906
0.623199 0.722351 0.761047
0.677490 0.710541 0.753571
0.676727 0.675476 0.734650
0.711121 0.651215 0.763275
0.459778 0.731781 0.688477
0.488983 0.740509 0.709198
0.528442 0.750397 0.731537
0.576111 0.761322 0.755524
0.632507 0.769012 0.773621
0.692047 0.770966 0.785187
0.751709 0.768768 0.789886
0.769257 0.738678 0.795074
0.447662 0.760315 0.663452
0.487335 0.762207 0.680603
0.533203 0.765625 0.699066
0.583801 0.771576 0.719452
0.638428 0.780548 0.742249
0.697479 0.791473 0.766846
0.760773 0.807861 0.795898
0.832550 0.832550 0.832550
