desertorosso.CUBE
#Created by: Adobe Photoshop Export Color Lookup Plugin
TITLE "desertorosso_v5.psd"
#LUT size
LUT_3D_SIZE 64
#data domain
DOMAIN_MIN 0.0 0.0 0.0
DOMAIN_MAX 1.0 1.0 1.0
#LUT data points
0.000000 0.000000 0.000000
0.000946 0.000519 0.000549
0.006683 0.003601 0.003723
0.021637 0.011688 0.011566
0.033173 0.017456 0.018219
0.044952 0.023254 0.025391
0.057983 0.028259 0.033905
0.070923 0.036041 0.041870
0.083893 0.044312 0.049988
0.097443 0.053802 0.058472
0.111206 0.063690 0.067017
0.125214 0.073608 0.075684
0.139465 0.082764 0.083649
0.153503 0.091492 0.091187
0.167847 0.099457 0.098511
0.182159 0.106537 0.105133
0.196686 0.113159 0.111420
0.211090 0.119751 0.117523
0.225281 0.126495 0.123688
0.239594 0.133514 0.130096
0.254578 0.141449 0.137482
0.269135 0.150330 0.145508
0.284119 0.159149 0.153625
0.298370 0.168121 0.161530
0.313232 0.176849 0.169556
0.327789 0.185608 0.177429
0.341797 0.194427 0.185181
0.356293 0.203186 0.193054
0.370300 0.211823 0.200684
0.384247 0.220581 0.208374
0.398041 0.229218 0.215912
0.411469 0.237640 0.223267
0.425079 0.246155 0.230682
0.438568 0.254425 0.237976
0.451324 0.262756 0.245087
0.464478 0.271027 0.252228
0.477386 0.279175 0.259247
0.489838 0.287201 0.266052
0.502167 0.295105 0.272766
0.514069 0.302917 0.279297
0.526154 0.310516 0.285828
0.537720 0.318207 0.292175
0.549530 0.325623 0.298523
0.560699 0.332886 0.304565
0.571472 0.340088 0.310455
0.582611 0.347168 0.316437
0.593018 0.354095 0.322083
0.603149 0.360809 0.327576
0.613068 0.367401 0.332947
0.622803 0.373962 0.338165
0.632233 0.380188 0.343231
0.641663 0.386444 0.348267
0.650055 0.392273 0.352783
0.659180 0.398163 0.357605
0.667053 0.403717 0.361847
0.675598 0.409393 0.366364
0.682953 0.414551 0.370270
0.684448 0.415710 0.372986
0.685699 0.417084 0.375946
0.687042 0.418701 0.379150
0.688690 0.420715 0.382874
0.690186 0.423065 0.386841
0.692078 0.425751 0.391296
0.693787 0.428894 0.396118
0.001190 0.001465 0.000519
0.000763 0.000580 0.000397
0.011475 0.007202 0.006012
0.028320 0.017517 0.014832
0.040070 0.024231 0.021210
0.051758 0.030945 0.027832
0.064301 0.037598 0.035126
0.077545 0.044067 0.042999
0.090576 0.051483 0.051270
0.104462 0.060455 0.060059
0.118042 0.070007 0.068787
0.131927 0.079712 0.077515
0.146057 0.089264 0.085968
0.160522 0.098236 0.094055
0.174530 0.106293 0.101227
0.188660 0.113159 0.107544
0.203186 0.119629 0.113647
0.217377 0.126343 0.119659
0.231598 0.133087 0.125854
0.246185 0.140656 0.132721
0.260651 0.148865 0.140320
0.275177 0.157532 0.148285
0.289642 0.166321 0.156219
0.304382 0.175140 0.164276
0.318665 0.183838 0.172089
0.332733 0.192474 0.179810
0.346924 0.201050 0.187561
0.361023 0.209839 0.195312
0.374817 0.218231 0.202820
0.388611 0.226807 0.210388
0.402405 0.235229 0.217896
0.415802 0.243683 0.225250
0.429230 0.251923 0.232513
0.442200 0.260132 0.239655
0.455170 0.268311 0.246796
0.468323 0.276459 0.253906
0.480713 0.284363 0.260681
0.492981 0.292267 0.267426
0.504944 0.299896 0.273956
0.517029 0.307587 0.280518
0.528992 0.315033 0.286957
0.540558 0.322449 0.293213
0.551697 0.329773 0.299347
0.562866 0.336914 0.305359
0.573517 0.343964 0.311157
0.584229 0.350830 0.316956
0.594635 0.357513 0.322510
0.604492 0.364075 0.327881
0.614288 0.370483 0.333160
0.623657 0.376770 0.338226
0.633148 0.382904 0.343262
0.641907 0.388947 0.348053
0.650757 0.394714 0.352722
0.659088 0.400391 0.357208
0.667145 0.405823 0.361481
0.675018 0.411041 0.365662
0.682495 0.416138 0.369629
0.683777 0.417297 0.372192
0.685242 0.418671 0.375153
0.686615 0.420227 0.378296
0.688202 0.422211 0.381897
0.689880 0.424500 0.385895
0.691498 0.427094 0.390167
0.693420 0.430176 0.394989
0.006897 0.008636 0.002960
0.007660 0.006287 0.002533
0.005127 0.003845 0.002747
0.022003 0.014191 0.011505
0.040527 0.025421 0.020905
0.055817 0.034943 0.029327
0.071014 0.044434 0.038055
0.084503 0.052887 0.046234
0.098083 0.060913 0.055206
0.111603 0.068909 0.063934
0.125702 0.077484 0.072510
0.139099 0.086853 0.080902
0.153107 0.095978 0.089050
0.167206 0.104828 0.096863
0.181213 0.112823 0.103882
0.195465 0.119385 0.109955
0.209625 0.126007 0.115875
0.223846 0.132599 0.121857
0.237915 0.139679 0.128204
0.252258 0.147552 0.135406
0.266724 0.156036 0.143219
0.281403 0.164642 0.151154
0.295837 0.173279 0.159088
0.309662 0.181946 0.166840
0.324127 0.190491 0.174683
0.338226 0.199066 0.182373
0.351929 0.207458 0.189880
0.366211 0.215973 0.197632
0.379700 0.224335 0.205078
0.393250 0.232758 0.212494
0.406891 0.241150 0.219971
0.420074 0.249298 0.227203
0.433319 0.257385 0.234375
0.446136 0.265442 0.241394
0.459106 0.273560 0.248474
0.471741 0.281494 0.255402
0.484131 0.289276 0.262177
0.496399 0.297028 0.268860
0.508423 0.304657 0.275421
0.519928 0.312012 0.281708
0.531433 0.319336 0.287964
0.542694 0.326569 0.294098
0.553955 0.333618 0.300171
0.564911 0.340668 0.306122
0.575531 0.347443 0.311859
0.586090 0.354309 0.317596
0.595886 0.360748 0.322906
0.605804 0.367218 0.328247
0.615234 0.373383 0.333344
0.624695 0.379486 0.338379
0.634064 0.385498 0.343353
0.642487 0.391327 0.347961
0.651093 0.396942 0.352539
0.659241 0.402344 0.356873
0.667206 0.407684 0.361115
0.674744 0.412659 0.365112
0.682220 0.417694 0.369080
0.683380 0.418793 0.371521
0.684875 0.420074 0.374359
0.686279 0.421692 0.377502
0.687622 0.423584 0.380981
0.689209 0.425751 0.384796
0.690948 0.428345 0.389069
0.692871 0.431335 0.393799
0.019043 0.023193 0.008026
0.022705 0.019562 0.007050
0.019592 0.015564 0.007080
0.013947 0.010468 0.007019
0.026581 0.018066 0.014160
0.051056 0.032928 0.026459
0.068909 0.044128 0.036285
0.085022 0.054504 0.045563
0.101715 0.065277 0.055664
0.117096 0.075317 0.065125
0.131775 0.084259 0.073944
0.146088 0.092468 0.082947
0.160553 0.102356 0.092041
0.174316 0.111176 0.099640
0.188202 0.119019 0.106476
0.201965 0.125549 0.112366
0.216095 0.132141 0.118164
0.229919 0.138824 0.124115
0.244598 0.146118 0.130768
0.258331 0.154510 0.138336
0.272888 0.162903 0.146149
0.287384 0.171387 0.153992
0.301544 0.179779 0.161774
0.315643 0.188507 0.169617
0.329742 0.196960 0.177338
0.343597 0.205261 0.184875
0.357361 0.213623 0.192413
0.371185 0.221893 0.199951
0.384857 0.230408 0.207489
0.398285 0.238617 0.214844
0.411346 0.246704 0.222015
0.424347 0.254761 0.229156
0.437286 0.262848 0.236237
0.450073 0.270660 0.243195
0.463165 0.278534 0.250244
0.475494 0.286316 0.257050
0.487488 0.293945 0.263672
0.499573 0.301453 0.270203
0.511658 0.308990 0.276764
0.523010 0.316254 0.282959
0.534576 0.323456 0.289246
0.545624 0.330536 0.295258
0.556244 0.337372 0.301056
0.566986 0.344208 0.306854
0.577667 0.350830 0.312592
0.587952 0.357483 0.318176
0.597595 0.363861 0.323425
0.607147 0.370026 0.328613
0.616547 0.376160 0.333679
0.625488 0.382080 0.338501
0.634705 0.387909 0.343384
0.642853 0.393402 0.347809
0.651337 0.398895 0.352325
0.659393 0.404205 0.356598
0.667267 0.409271 0.360779
0.674561 0.414215 0.364655
0.681519 0.418976 0.368378
0.683044 0.420074 0.370850
0.684357 0.421387 0.373596
0.685486 0.422852 0.376556
0.687286 0.424744 0.380035
0.688751 0.426910 0.383820
0.690369 0.429474 0.387970
0.692169 0.432373 0.392578
0.028778 0.031921 0.012726
0.031982 0.029053 0.010376
0.031525 0.027405 0.009613
0.029663 0.024567 0.008636
0.026337 0.019745 0.013123
0.036041 0.025696 0.019287
0.055847 0.037811 0.029419
0.080475 0.053009 0.042480
0.098389 0.064545 0.052673
0.115356 0.075500 0.062683
0.132690 0.086395 0.072815
0.148773 0.096222 0.082397
0.165009 0.105408 0.091034
0.179993 0.113190 0.098328
0.194366 0.121735 0.106384
0.208862 0.130890 0.114105
0.222534 0.137909 0.120422
0.236603 0.144806 0.126556
0.250763 0.152435 0.133484
0.265106 0.161163 0.141449
0.279297 0.169556 0.149200
0.293396 0.177765 0.156891
0.307373 0.186188 0.164581
0.321594 0.194702 0.172363
0.335083 0.203064 0.179901
0.348999 0.211334 0.187469
0.362701 0.219482 0.194946
0.376068 0.227753 0.202301
0.389709 0.235962 0.209747
0.402832 0.244080 0.216980
0.415924 0.252045 0.224121
0.428955 0.259949 0.231232
0.441681 0.267792 0.238190
0.454315 0.275604 0.245117
0.467102 0.283325 0.252045
0.479218 0.290924 0.258667
0.491028 0.298370 0.265167
0.502991 0.305786 0.271667
0.514496 0.313049 0.278015
0.526093 0.320221 0.284271
0.537109 0.327271 0.290283
0.548035 0.334137 0.296204
0.558685 0.341003 0.302032
0.569275 0.347504 0.307739
0.579498 0.354095 0.313263
0.589447 0.360474 0.318695
0.599487 0.366730 0.324036
0.608765 0.372772 0.329071
0.617615 0.378571 0.333893
0.626587 0.384308 0.338684
0.635406 0.390045 0.343414
0.643829 0.395508 0.347900
0.652191 0.400757 0.352295
0.659607 0.405792 0.356323
0.667542 0.410858 0.360474
0.674377 0.415527 0.364166
0.681183 0.420044 0.367767
0.682709 0.421265 0.370209
0.683746 0.422424 0.372772
0.685303 0.424103 0.375824
0.686737 0.425842 0.379120
0.688416 0.428009 0.382874
0.689972 0.430511 0.386932
0.691772 0.433319 0.391449
0.037903 0.041138 0.017273
0.040283 0.038391 0.014221
0.042542 0.037048 0.013947
0.040680 0.033966 0.012634
0.037537 0.029968 0.012604
0.036469 0.027557 0.016479
0.045868 0.034302 0.024811
0.061462 0.043549 0.033112
0.088013 0.060303 0.047028
0.111725 0.074890 0.059753
0.128876 0.085785 0.069550
0.146729 0.096466 0.079346
0.163239 0.106018 0.088470
0.180359 0.115387 0.097229
0.196655 0.124146 0.105286
0.212799 0.131958 0.112640
0.227753 0.139618 0.119263
0.242584 0.148804 0.127136
0.256744 0.157379 0.135101
0.271454 0.166748 0.143799
0.285645 0.175812 0.152283
0.299438 0.183899 0.159790
0.313507 0.192291 0.167511
0.326965 0.200623 0.175018
0.341003 0.208832 0.182678
0.354706 0.217102 0.190186
0.367798 0.225098 0.197388
0.381348 0.233185 0.204773
0.394653 0.241272 0.212067
0.407745 0.249329 0.219299
0.420502 0.257080 0.226257
0.433258 0.264801 0.233215
0.446442 0.272644 0.240326
0.458374 0.280273 0.246979
0.470551 0.287750 0.253632
0.482697 0.295227 0.260254
0.494751 0.302612 0.266785
0.506317 0.309784 0.273102
0.517517 0.316986 0.279297
0.529144 0.324036 0.285553
0.539825 0.330902 0.291412
0.550598 0.337646 0.297272
0.561157 0.344299 0.303009
0.571594 0.350739 0.308624
0.581451 0.357086 0.313995
0.591400 0.363312 0.319336
0.600952 0.369324 0.324493
0.610107 0.375305 0.329468
0.619019 0.380951 0.334229
0.627777 0.386627 0.338959
0.636078 0.391998 0.343414
0.644379 0.397278 0.347839
0.652222 0.402405 0.352051
0.659729 0.407288 0.356049
0.667389 0.412109 0.360046
0.674103 0.416656 0.363678
0.680817 0.421112 0.367218
0.682220 0.422150 0.369537
0.683533 0.423462 0.372131
0.684723 0.425018 0.374969
0.686432 0.426758 0.378296
0.687897 0.428925 0.381866
0.689453 0.431366 0.385864
0.691254 0.434265 0.390320
0.046844 0.050842 0.022858
0.049835 0.047577 0.019073
0.052582 0.046692 0.017975
0.051788 0.043823 0.016785
0.049957 0.041138 0.016388
0.047089 0.037262 0.017029
0.046417 0.035431 0.020325
0.056366 0.042480 0.028381
0.067261 0.050201 0.037018
0.093048 0.067169 0.050629
0.121368 0.083832 0.065247
0.142853 0.096252 0.076294
0.160034 0.106171 0.085297
0.177216 0.115601 0.093719
0.194672 0.124603 0.101807
0.211548 0.133240 0.109741
0.227814 0.141876 0.117950
0.244232 0.150848 0.127350
0.260223 0.160248 0.135590
0.276245 0.169861 0.144165
0.290375 0.178802 0.152466
0.304688 0.188080 0.160919
0.318665 0.196960 0.169159
0.332520 0.205566 0.177216
0.346680 0.214386 0.185394
0.359955 0.222534 0.192719
0.373657 0.230499 0.200104
0.386627 0.238403 0.207275
0.399689 0.246368 0.214447
0.412506 0.254272 0.221527
0.425537 0.261963 0.228607
0.437866 0.269653 0.235413
0.450195 0.277191 0.242126
0.462524 0.284790 0.248901
0.474731 0.292175 0.255524
0.486359 0.299408 0.261932
0.498077 0.306610 0.268311
0.509460 0.313629 0.274506
0.521027 0.320709 0.280762
0.531799 0.327576 0.286713
0.542664 0.334229 0.292603
0.552948 0.340820 0.298218
0.563477 0.347229 0.303894
0.573669 0.353729 0.309418
0.583557 0.359894 0.314758
0.593018 0.365936 0.319916
0.602631 0.371887 0.325043
0.611298 0.377533 0.329773
0.619934 0.383087 0.334442
0.628754 0.388580 0.339142
0.636841 0.393768 0.343475
0.644684 0.398865 0.347687
0.652618 0.403870 0.351898
0.660217 0.408752 0.355927
0.667206 0.413239 0.359619
0.674042 0.417725 0.363251
0.680450 0.421967 0.366638
0.681519 0.422913 0.368774
0.683136 0.424286 0.371399
0.684540 0.425903 0.374237
0.685760 0.427582 0.377289
0.687408 0.429779 0.380920
0.688995 0.432129 0.384827
0.690643 0.434937 0.389160
0.056091 0.060181 0.029510
0.058868 0.056824 0.024872
0.062622 0.055481 0.022736
0.062622 0.053650 0.021790
0.060913 0.050781 0.020844
0.059204 0.048431 0.020630
0.056702 0.044647 0.021545
0.056732 0.043365 0.025391
0.066650 0.050537 0.034088
0.077240 0.058533 0.042603
0.099121 0.072906 0.054901
0.127106 0.089813 0.069244
0.153351 0.104584 0.081573
0.173828 0.115448 0.090759
0.190918 0.124176 0.098755
0.208038 0.132690 0.106171
0.224976 0.141052 0.114227
0.241974 0.150085 0.123077
0.258362 0.159912 0.133575
0.275146 0.170349 0.143158
0.291656 0.180664 0.152527
0.307587 0.190277 0.161316
0.322845 0.199646 0.169586
0.337189 0.208679 0.177765
0.350952 0.217468 0.185822
0.364624 0.225952 0.193695
0.378082 0.234528 0.201508
0.391785 0.243103 0.209351
0.404785 0.251221 0.216858
0.417358 0.258942 0.223785
0.430267 0.266663 0.230835
0.442688 0.274200 0.237610
0.454529 0.281525 0.244141
0.466858 0.288971 0.250854
0.478363 0.296265 0.257233
0.490326 0.303436 0.263702
0.501495 0.310425 0.269867
0.512970 0.317352 0.276062
0.524017 0.324188 0.282074
0.534760 0.330841 0.287933
0.545319 0.337433 0.293701
0.555817 0.343903 0.299377
0.565887 0.350250 0.304871
0.575714 0.356476 0.310272
0.585480 0.362457 0.315460
0.594818 0.368439 0.320557
0.603943 0.374084 0.325470
0.612671 0.379700 0.330170
0.621552 0.385254 0.334930
0.629822 0.390411 0.339355
0.637848 0.395508 0.343658
0.645782 0.400543 0.347870
0.653076 0.405273 0.351807
0.660126 0.409821 0.355530
0.667023 0.414215 0.359192
0.673920 0.418457 0.362793
0.680267 0.422607 0.366150
0.681335 0.423737 0.368256
0.682648 0.425049 0.370667
0.683868 0.426483 0.373352
0.685425 0.428314 0.376495
0.686859 0.430420 0.379913
0.688568 0.432861 0.383820
0.690186 0.435547 0.388031
0.065338 0.069885 0.035095
0.068054 0.066437 0.031311
0.072571 0.064362 0.027893
0.073944 0.063751 0.027466
0.072388 0.060791 0.025909
0.070465 0.058258 0.025299
0.068176 0.055573 0.024597
0.066681 0.052399 0.027374
0.066772 0.051270 0.030945
0.077057 0.058716 0.039551
0.087616 0.066711 0.048309
0.105072 0.078217 0.059296
0.132721 0.094757 0.073517
0.161591 0.110565 0.086029
0.185089 0.122437 0.095367
0.204773 0.132019 0.103149
0.221252 0.140167 0.110748
0.238861 0.149170 0.119080
0.255493 0.158844 0.129089
0.272736 0.169525 0.140381
0.290375 0.180298 0.150757
0.306305 0.190247 0.159882
0.321960 0.200104 0.168732
0.338501 0.210388 0.178009
0.353210 0.219513 0.186340
0.367676 0.228485 0.194183
0.382202 0.237274 0.202087
0.395203 0.245575 0.209595
0.408630 0.254089 0.217316
0.421234 0.262024 0.224640
0.434326 0.270233 0.232056
0.446747 0.278015 0.239197
0.458862 0.285828 0.246216
0.470856 0.293060 0.252747
0.482666 0.300201 0.259186
0.494263 0.307159 0.265503
0.505127 0.314026 0.271484
0.516449 0.320953 0.277618
0.527283 0.327576 0.283539
0.537750 0.334137 0.289246
0.548157 0.340485 0.294922
0.558655 0.346863 0.300537
0.568024 0.352844 0.305725
0.578278 0.359131 0.311218
0.587708 0.364960 0.316315
0.596588 0.370697 0.321198
0.605743 0.376251 0.326050
0.614136 0.381653 0.330627
0.622711 0.386963 0.335236
0.631042 0.392090 0.339661
0.638885 0.397095 0.343872
0.646240 0.401764 0.347778
0.653259 0.406403 0.351624
0.660217 0.410736 0.355255
0.667206 0.415039 0.358887
0.673431 0.419128 0.362213
0.679260 0.422974 0.365326
0.680969 0.424286 0.367584
0.682098 0.425537 0.369904
0.683594 0.427155 0.372650
0.684875 0.428955 0.375671
0.686401 0.431000 0.378998
0.687988 0.433350 0.382751
0.689667 0.436096 0.386963
0.074432 0.079834 0.040131
0.077637 0.076141 0.037201
0.082031 0.073914 0.034729
0.084717 0.073578 0.033447
0.083801 0.070862 0.031921
0.081909 0.068329 0.030792
0.079956 0.065826 0.030670
0.077301 0.062408 0.029877
0.077179 0.060547 0.033691
0.077087 0.059448 0.036957
0.087708 0.067200 0.046173
0.098419 0.075378 0.055664
0.111023 0.083252 0.063904
0.138580 0.099731 0.077667
0.166199 0.114777 0.089478
0.193726 0.128479 0.098969
0.216187 0.138947 0.107178
0.235138 0.148224 0.115692
0.252014 0.157684 0.124939
0.269714 0.168427 0.135986
0.287781 0.179413 0.147400
0.304077 0.189484 0.157776
0.319305 0.199097 0.166351
0.335938 0.209351 0.175842
0.352173 0.219360 0.184784
0.367065 0.228729 0.193420
0.382874 0.238525 0.202393
0.397247 0.247375 0.210144
0.411133 0.255951 0.217621
0.424805 0.264435 0.225098
0.436981 0.272217 0.232147
0.450012 0.280487 0.239594
0.462250 0.287933 0.246521
0.474030 0.295502 0.253296
0.485657 0.302948 0.260040
0.497223 0.310242 0.266602
0.509125 0.317657 0.273315
0.519684 0.324188 0.279083
0.530792 0.330780 0.285065
0.540741 0.337189 0.290588
0.551117 0.343384 0.296204
0.560913 0.349518 0.301514
0.571136 0.355682 0.306976
0.580444 0.361450 0.312042
0.589600 0.367188 0.317017
0.598511 0.372803 0.321869
0.606964 0.378143 0.326447
0.615662 0.383484 0.331085
0.623932 0.388641 0.335541
0.631622 0.393585 0.339691
0.639435 0.398315 0.343811
0.646698 0.402985 0.347717
0.653992 0.407471 0.351593
0.660645 0.411743 0.355133
0.667114 0.415771 0.358521
0.673065 0.419586 0.361664
0.678833 0.423370 0.364716
0.680664 0.424774 0.367035
0.681915 0.426086 0.369293
0.683350 0.427673 0.371948
0.684418 0.429443 0.374786
0.686096 0.431427 0.378113
0.687561 0.433899 0.381775
0.689270 0.436584 0.385925
0.083984 0.089600 0.045319
0.086975 0.085907 0.041779
0.091858 0.083496 0.040985
0.095062 0.082520 0.040253
0.095184 0.081146 0.038635
0.093231 0.078491 0.038239
0.091431 0.075989 0.037048
0.089661 0.073639 0.036072
0.087524 0.070343 0.036591
0.087463 0.068695 0.040161
0.087524 0.067780 0.043671
0.098267 0.075775 0.053528
0.109406 0.084229 0.063110
0.120941 0.090973 0.070312
0.143677 0.104187 0.081329
0.171753 0.119293 0.093231
0.199799 0.132965 0.102600
0.225220 0.144806 0.111084
0.247406 0.156036 0.120575
0.265137 0.166565 0.131805
0.282715 0.177216 0.142578
0.300812 0.188110 0.154022
0.317780 0.198578 0.164398
0.333496 0.208282 0.173584
0.349335 0.218109 0.182617
0.365997 0.228333 0.191925
0.380890 0.237671 0.200439
0.395935 0.247009 0.208893
0.410065 0.255951 0.216736
0.425415 0.265472 0.225189
0.438538 0.273651 0.232574
0.451599 0.281647 0.239624
0.464722 0.289673 0.246643
0.476227 0.297211 0.253357
0.488647 0.304901 0.260315
0.500031 0.312134 0.266815
0.511444 0.319336 0.273285
0.522308 0.326294 0.279510
0.533142 0.333099 0.285614
0.543640 0.339600 0.291595
0.553925 0.346222 0.297424
0.563965 0.352295 0.302826
0.572998 0.357971 0.307800
0.582794 0.363861 0.313019
0.591461 0.369324 0.317749
0.600220 0.374756 0.322479
0.609222 0.380219 0.327271
0.617340 0.385284 0.331665
0.624786 0.390137 0.335724
0.632996 0.394958 0.340027
0.640198 0.399628 0.343933
0.647369 0.404083 0.347748
0.654175 0.408447 0.351379
0.660583 0.412506 0.354797
0.666748 0.416382 0.358063
0.672760 0.420166 0.361237
0.678558 0.423737 0.364258
0.680115 0.425110 0.366364
0.681427 0.426514 0.368622
0.682800 0.427979 0.371155
0.684021 0.429718 0.373932
0.685303 0.431793 0.377075
0.687103 0.434265 0.380798
0.688629 0.436951 0.384796
0.093597 0.099518 0.049927
0.096466 0.095734 0.046753
0.100922 0.093353 0.045471
0.105011 0.091675 0.044861
0.107025 0.091461 0.045166
0.104980 0.088928 0.045074
0.103058 0.086334 0.044067
0.101166 0.083832 0.042694
0.099426 0.081421 0.042114
0.098053 0.078644 0.043945
0.097900 0.076996 0.047089
0.098083 0.076111 0.050262
0.108856 0.084198 0.060242
0.120026 0.092773 0.070343
0.131500 0.098999 0.076874
0.149628 0.108856 0.085724
0.176514 0.123352 0.096619
0.204590 0.137054 0.105988
0.233490 0.150482 0.115204
0.256622 0.162872 0.125793
0.277954 0.175323 0.138092
0.295624 0.185913 0.149139
0.312958 0.196472 0.160065
0.331055 0.207367 0.171082
0.346466 0.216949 0.180176
0.362335 0.226685 0.189301
0.378174 0.236481 0.198212
0.393433 0.245972 0.206848
0.407776 0.254944 0.215057
0.423065 0.264374 0.223572
0.437073 0.273132 0.231354
0.450684 0.281647 0.238831
0.465149 0.290649 0.246826
0.477539 0.298370 0.253723
0.489838 0.305908 0.260345
0.502014 0.313538 0.266937
0.513397 0.320648 0.273285
0.524231 0.327637 0.279480
0.534668 0.334229 0.285370
0.545319 0.340942 0.291412
0.555481 0.347412 0.297150
0.564819 0.353333 0.302490
0.575134 0.359772 0.308228
0.584686 0.365784 0.313568
0.593475 0.371368 0.318542
0.602509 0.376831 0.323395
0.610199 0.381836 0.327606
0.618408 0.386810 0.332001
0.626190 0.391602 0.336151
0.633881 0.396332 0.340271
0.641052 0.400696 0.344055
0.647614 0.405060 0.347626
0.654480 0.409210 0.351257
0.660919 0.413116 0.354645
0.666809 0.416840 0.357758
0.672363 0.420410 0.360687
0.678040 0.423889 0.363617
0.679840 0.425415 0.365845
0.680969 0.426697 0.367920
0.682312 0.428314 0.370361
0.683685 0.430115 0.373169
0.685120 0.432190 0.376312
0.686676 0.434601 0.379852
0.688293 0.437256 0.383820
0.103058 0.109619 0.054688
0.106354 0.105591 0.051361
0.111023 0.103210 0.050171
0.115723 0.100861 0.049011
0.118011 0.100983 0.049591
0.116730 0.099030 0.049927
0.114899 0.096649 0.050140
0.112915 0.094208 0.049927
0.110870 0.091675 0.048798
0.109192 0.089355 0.048340
0.108795 0.087097 0.051788
0.108643 0.085571 0.054504
0.108551 0.084534 0.057220
0.119568 0.092926 0.068054
0.130524 0.100983 0.077240
0.142365 0.106964 0.083496
0.155518 0.113556 0.090118
0.182495 0.127930 0.100647
0.209961 0.141296 0.109497
0.237091 0.154297 0.118713
0.265717 0.169647 0.131317
0.288452 0.182739 0.144165
0.309052 0.194885 0.156128
0.325165 0.204742 0.166199
0.342712 0.215424 0.177338
0.359558 0.225647 0.186859
0.375031 0.235168 0.195770
0.390259 0.244598 0.204376
0.406036 0.254272 0.213226
0.420471 0.263214 0.221497
0.436096 0.272858 0.230225
0.448944 0.280914 0.237366
0.463562 0.289978 0.245453
0.476135 0.297852 0.252533
0.489136 0.306000 0.259735
0.502045 0.314026 0.266907
0.513824 0.321381 0.273376
0.525024 0.328339 0.279419
0.536438 0.335449 0.285522
0.546478 0.341675 0.291107
0.556549 0.348022 0.296783
0.566406 0.354340 0.302368
0.576172 0.360413 0.307800
0.585449 0.366394 0.313049
0.594116 0.371887 0.317963
0.602844 0.377441 0.322815
0.611572 0.382843 0.327667
0.619598 0.388000 0.332153
0.627533 0.392975 0.336578
0.634705 0.397400 0.340424
0.641785 0.401794 0.344177
0.648529 0.405914 0.347748
0.654907 0.409912 0.351166
0.660767 0.413727 0.354309
0.666718 0.417358 0.357391
0.672302 0.420776 0.360291
0.677216 0.423828 0.362915
0.679047 0.425354 0.365021
0.680817 0.426971 0.367371
0.681793 0.428436 0.369598
0.683319 0.430298 0.372375
0.684662 0.432373 0.375458
0.686310 0.434753 0.378906
0.687927 0.437500 0.382812
0.112885 0.119415 0.059326
0.116180 0.115540 0.055847
0.120636 0.113159 0.054504
0.125305 0.110687 0.053101
0.128662 0.110168 0.053040
0.128662 0.109222 0.053864
0.126648 0.106659 0.054047
0.124542 0.104156 0.054352
0.122711 0.101929 0.054474
0.120636 0.099518 0.054413
0.119904 0.097656 0.055847
0.119568 0.095612 0.059265
0.119415 0.094208 0.062378
0.119476 0.093323 0.065125
0.130402 0.101440 0.075043
0.141632 0.109192 0.084045
0.153625 0.114990 0.090179
0.165161 0.120453 0.095673
0.187988 0.132263 0.104218
0.215637 0.145691 0.113373
0.243652 0.159363 0.122925
0.272278 0.175018 0.136414
0.297241 0.189392 0.149445
0.319244 0.202118 0.161743
0.338531 0.213562 0.172882
0.354767 0.223480 0.183228
0.371094 0.233398 0.192963
0.388275 0.243805 0.202545
0.402710 0.252686 0.210876
0.418365 0.262390 0.219635
0.432312 0.270996 0.227570
0.447144 0.280182 0.236023
0.460754 0.288605 0.243530
0.474213 0.296936 0.251129
0.487061 0.304993 0.258179
0.500854 0.313507 0.265839
0.512329 0.320740 0.272125
0.524323 0.328186 0.278961
0.535767 0.335388 0.285156
0.546906 0.342285 0.291229
0.557159 0.348602 0.296722
0.567993 0.355225 0.302460
0.576782 0.360809 0.307312
0.586212 0.366699 0.312592
0.594421 0.372040 0.317291
0.603180 0.377533 0.322174
0.611298 0.382874 0.326721
0.619354 0.387848 0.331238
0.627258 0.392944 0.335632
0.634521 0.397461 0.339661
