desertorosso.CUBE
#Created by: Adobe Photoshop Export Color Lookup Plugin
TITLE "desertorosso_v5.psd"
#LUT size
LUT_3D_SIZE 4
#data domain
DOMAIN_MIN 0.0 0.0 0.0
DOMAIN_MAX 1.0 1.0 1.0
#LUT data points
0.000000 0.000000 0.000000
0.269135 0.150330 0.145508
0.549530 0.325623 0.298523
0.693787 0.428894 0.396118
0.190735 0.199829 0.089569
0.207184 0.157715 0.109467
0.562958 0.354858 0.298157
0.680603 0.429810 0.367401
0.395294 0.414642 0.171661
0.454071 0.371338 0.135315
0.433990 0.325928 0.227417
0.654419 0.421234 0.349945
0.577301 0.620453 0.256744
0.663391 0.604797 0.199188
0.670074 0.548981 0.209503
0.621033 0.468170 0.320740
0.112335 0.132111 0.174744
0.128540 0.096130 0.176941
0.493195 0.127075 0.425964
0.729095 0.313263 0.498230
0.144135 0.227325 0.206177
0.223938 0.230316 0.235565
0.510773 0.363464 0.362610
0.730133 0.514771 0.514465
0.280701 0.613434 0.275421
0.420227 0.452148 0.332245
0.444611 0.392487 0.328674
0.704193 0.492584 0.415283
0.509949 0.727905 0.331329
0.614105 0.670441 0.416626
0.693787 0.652252 0.380585
0.670288 0.558350 0.399170
0.244843 0.283600 0.375488
0.233429 0.229919 0.349884
0.283417 0.208405 0.387268
0.686005 0.189667 0.738525
0.271210 0.414307 0.454437
0.355133 0.390991 0.442963
0.387512 0.339050 0.447327
0.771973 0.377625 0.711426
0.299255 0.497986 0.440430
0.388397 0.487274 0.465088
0.512085 0.517548 0.521790
0.778900 0.678986 0.686951
0.319702 0.855255 0.473999
0.436523 0.806885 0.456238
0.699890 0.741394 0.601776
0.735260 0.684998 0.596832
0.389587 0.449097 0.590485
0.372284 0.377594 0.555206
0.395233 0.374847 0.557953
0.454865 0.325256 0.616913
0.416229 0.590820 0.684265
0.496216 0.563049 0.666870
0.491791 0.487427 0.626862
0.564880 0.435516 0.689026
0.438202 0.712372 0.724091
0.528992 0.708405 0.744629
0.653564 0.691650 0.742065
0.692261 0.622833 0.753204
0.447662 0.760315 0.663452
0.549164 0.768219 0.706116
0.677307 0.787354 0.758270
0.832550 0.832550 0.832550
