risoamaro.CUBE
#Created by: Adobe Photoshop Export Color Lookup Plugin
TITLE "risoamaro_v1.psd"
#LUT size
LUT_3D_SIZE 4
#data domain
DOMAIN_MIN 0.0 0.0 0.0
DOMAIN_MAX 1.0 1.0 1.0
#LUT data points
0.000000 0.000000 0.000000
0.044708 0.044708 0.044708
0.131592 0.131592 0.131592
0.224091 0.224091 0.224091
0.000000 0.000000 0.000000
0.027771 0.027771 0.027771
0.113922 0.113922 0.113922
0.205139 0.205139 0.205139
0.027679 0.027679 0.027679
0.061829 0.061829 0.061829
0.096313 0.096313 0.096313
0.186432 0.186432 0.186432
0.061737 0.061737 0.061737
0.096222 0.096222 0.096222
0.131500 0.131500 0.131500
0.167694 0.167694 0.167694
0.000000 0.000000 0.000000
0.000000 0.000000 0.000000
0.044708 0.044708 0.044708
0.131592 0.131592 0.131592
0.000000 0.000000 0.000000
0.323456 0.323456 0.323456
0.429352 0.429352 0.429352
0.542328 0.542328 0.542328
0.000092 0.000092 0.000092
0.365021 0.365021 0.365021
0.407623 0.407623 0.407623
0.519379 0.519379 0.519379
0.027679 0.027679 0.027679
0.407501 0.407501 0.407501
0.451477 0.451477 0.451477
0.496399 0.496399 0.496399
0.000000 0.000000 0.000000
0.000000 0.000000 0.000000
0.000000 0.000000 0.000000
0.044708 0.044708 0.044708
0.000000 0.000000 0.000000
0.282898 0.282898 0.282898
0.323456 0.323456 0.323456
0.429352 0.429352 0.429352
0.000000 0.000000 0.000000
0.323456 0.323456 0.323456
0.754822 0.754822 0.754822
0.845551 0.845551 0.845551
0.000000 0.000000 0.000000
0.365021 0.365021 0.365021
0.792511 0.792511 0.792511
0.828400 0.828400 0.828400
0.000000 0.000000 0.000000
0.000000 0.000000 0.000000
0.000000 0.000000 0.000000
0.000000 0.000000 0.000000
0.000000 0.000000 0.000000
0.243652 0.243652 0.243652
0.282898 0.282898 0.282898
0.323456 0.323456 0.323456
0.000000 0.000000 0.000000
0.282898 0.282898 0.282898
0.715302 0.715302 0.715302
0.754822 0.754822 0.754822
0.000000 0.000000 0.000000
0.323456 0.323456 0.323456
0.754944 0.754944 0.754944
1.000000 1.000000 1.000000
