risoamaro.CUBE
#Created by: Adobe Photoshop Export Color Lookup Plugin
TITLE "risoamaro_v1.psd"
#LUT size
LUT_3D_SIZE 64
#data domain
DOMAIN_MIN 0.0 0.0 0.0
DOMAIN_MAX 1.0 1.0 1.0
#LUT data points
0.000000 0.000000 0.000000
0.000000 0.000000 0.000000
0.000000 0.000000 0.000000
0.000000 0.000000 0.000000
0.000000 0.000000 0.000000
0.000000 0.000000 0.000000
0.000000 0.000000 0.000000
0.000000 0.000000 0.000000
0.000000 0.000000 0.000000
0.000000 0.000000 0.000000
0.000000 0.000000 0.000000
0.003845 0.003845 0.003845
0.008118 0.008118 0.008118
0.012238 0.012238 0.012238
0.016388 0.016388 0.016388
0.020447 0.020447 0.020447
0.024506 0.024506 0.024506
0.028595 0.028595 0.028595
0.032623 0.032623 0.032623
0.036621 0.036621 0.036621
0.040649 0.040649 0.040649
0.044708 0.044708 0.044708
0.048706 0.048706 0.048706
0.052765 0.052765 0.052765
0.056824 0.056824 0.056824
0.060883 0.060883 0.060883
0.064880 0.064880 0.064880
0.069214 0.069214 0.069214
0.073273 0.073273 0.073273
0.077393 0.077393 0.077393
0.081421 0.081421 0.081421
0.085510 0.085510 0.085510
0.089600 0.089600 0.089600
0.093750 0.093750 0.093750
0.097870 0.097870 0.097870
0.101990 0.101990 0.101990
0.106415 0.106415 0.106415
0.110565 0.110565 0.110565
0.114716 0.114716 0.114716
0.118896 0.118896 0.118896
0.123077 0.123077 0.123077
0.127258 0.127258 0.127258
0.131592 0.131592 0.131592
0.135956 0.135956 0.135956
0.140228 0.140228 0.140228
0.144440 0.144440 0.144440
0.148712 0.148712 0.148712
0.152985 0.152985 0.152985
0.157532 0.157532 0.157532
0.161804 0.161804 0.161804
0.166107 0.166107 0.166107
0.170441 0.170441 0.170441
0.174805 0.174805 0.174805
0.179382 0.179382 0.179382
0.183746 0.183746 0.183746
0.188110 0.188110 0.188110
0.192535 0.192535 0.192535
0.197174 0.197174 0.197174
0.201569 0.201569 0.201569
0.205994 0.205994 0.205994
0.210480 0.210480 0.210480
0.215118 0.215118 0.215118
0.219604 0.219604 0.219604
0.224091 0.224091 0.224091
0.000000 0.000000 0.000000
0.000000 0.000000 0.000000
0.000000 0.000000 0.000000
0.000000 0.000000 0.000000
0.000000 0.000000 0.000000
0.000000 0.000000 0.000000
0.000000 0.000000 0.000000
0.000000 0.000000 0.000000
0.000000 0.000000 0.000000
0.000000 0.000000 0.000000
0.000000 0.000000 0.000000
0.003021 0.003021 0.003021
0.007294 0.007294 0.007294
0.011444 0.011444 0.011444
0.015594 0.015594 0.015594
0.019684 0.019684 0.019684
0.023743 0.023743 0.023743
0.027771 0.027771 0.027771
0.031830 0.031830 0.031830
0.035858 0.035858 0.035858
0.039886 0.039886 0.039886
0.043945 0.043945 0.043945
0.048004 0.048004 0.048004
0.052002 0.052002 0.052002
0.056061 0.056061 0.056061
0.060089 0.060089 0.060089
0.064148 0.064148 0.064148
0.068207 0.068207 0.068207
0.072266 0.072266 0.072266
0.076569 0.076569 0.076569
0.080658 0.080658 0.080658
0.084747 0.084747 0.084747
0.088867 0.088867 0.088867
0.092957 0.092957 0.092957
0.097076 0.097076 0.097076
0.101196 0.101196 0.101196
0.105377 0.105377 0.105377
0.109528 0.109528 0.109528
0.113922 0.113922 0.113922
0.118073 0.118073 0.118073
0.122284 0.122284 0.122284
0.126465 0.126465 0.126465
0.130676 0.130676 0.130676
0.134888 0.134888 0.134888
0.139374 0.139374 0.139374
0.143616 0.143616 0.143616
0.147888 0.147888 0.147888
0.152161 0.152161 0.152161
0.156433 0.156433 0.156433
0.160950 0.160950 0.160950
0.165283 0.165283 0.165283
0.169617 0.169617 0.169617
0.173950 0.173950 0.173950
0.178314 0.178314 0.178314
0.182922 0.182922 0.182922
0.187286 0.187286 0.187286
0.191681 0.191681 0.191681
0.196075 0.196075 0.196075
0.200745 0.200745 0.200745
0.205170 0.205170 0.205170
0.209595 0.209595 0.209595
0.214203 0.214203 0.214203
0.218781 0.218781 0.218781
0.223236 0.223236 0.223236
0.000000 0.000000 0.000000
0.000000 0.000000 0.000000
0.000000 0.000000 0.000000
0.000000 0.000000 0.000000
0.000000 0.000000 0.000000
0.000000 0.000000 0.000000
0.000000 0.000000 0.000000
0.000000 0.000000 0.000000
0.000000 0.000000 0.000000
0.000000 0.000000 0.000000
0.000000 0.000000 0.000000
0.001862 0.001862 0.001862
0.006226 0.006226 0.006226
0.010406 0.010406 0.010406
0.014557 0.014557 0.014557
0.018646 0.018646 0.018646
0.022705 0.022705 0.022705
0.026855 0.026855 0.026855
0.031067 0.031067 0.031067
0.035126 0.035126 0.035126
0.039154 0.039154 0.039154
0.043182 0.043182 0.043182
0.047211 0.047211 0.047211
0.051270 0.051270 0.051270
0.055267 0.055267 0.055267
0.059326 0.059326 0.059326
0.063354 0.063354 0.063354
0.067413 0.067413 0.067413
0.071503 0.071503 0.071503
0.075562 0.075562 0.075562
0.079651 0.079651 0.079651
0.083740 0.083740 0.083740
0.088074 0.088074 0.088074
0.092194 0.092194 0.092194
0.096344 0.096344 0.096344
0.100433 0.100433 0.100433
0.104584 0.104584 0.104584
0.108704 0.108704 0.108704
0.112885 0.112885 0.112885
0.117279 0.117279 0.117279
0.121490 0.121490 0.121490
0.125702 0.125702 0.125702
0.129883 0.129883 0.129883
0.134094 0.134094 0.134094
0.138336 0.138336 0.138336
0.142761 0.142761 0.142761
0.147064 0.147064 0.147064
0.151367 0.151367 0.151367
0.155609 0.155609 0.155609
0.159912 0.159912 0.159912
0.164459 0.164459 0.164459
0.168793 0.168793 0.168793
0.173126 0.173126 0.173126
0.177490 0.177490 0.177490
0.181854 0.181854 0.181854
0.186462 0.186462 0.186462
0.190857 0.190857 0.190857
0.195251 0.195251 0.195251
0.199646 0.199646 0.199646
0.204315 0.204315 0.204315
0.208740 0.208740 0.208740
0.213196 0.213196 0.213196
0.217926 0.217926 0.217926
0.222412 0.222412 0.222412
0.000000 0.000000 0.000000
0.000000 0.000000 0.000000
0.000000 0.000000 0.000000
0.000000 0.000000 0.000000
0.000000 0.000000 0.000000
0.000000 0.000000 0.000000
0.000000 0.000000 0.000000
0.000000 0.000000 0.000000
0.000000 0.000000 0.000000
0.000000 0.000000 0.000000
0.000000 0.000000 0.000000
0.001038 0.001038 0.001038
0.005432 0.005432 0.005432
0.009644 0.009644 0.009644
0.013763 0.013763 0.013763
0.017883 0.017883 0.017883
0.021942 0.021942 0.021942
0.026001 0.026001 0.026001
0.030029 0.030029 0.030029
0.034088 0.034088 0.034088
0.038147 0.038147 0.038147
0.042267 0.042267 0.042267
0.046448 0.046448 0.046448
0.050476 0.050476 0.050476
0.054535 0.054535 0.054535
0.058563 0.058563 0.058563
0.062622 0.062622 0.062622
0.066681 0.066681 0.066681
0.070770 0.070770 0.070770
0.074799 0.074799 0.074799
0.078918 0.078918 0.078918
0.082977 0.082977 0.082977
0.087067 0.087067 0.087067
0.091217 0.091217 0.091217
0.095551 0.095551 0.095551
0.099670 0.099670 0.099670
0.103790 0.103790 0.103790
0.107941 0.107941 0.107941
0.112122 0.112122 0.112122
0.116272 0.116272 0.116272
0.120453 0.120453 0.120453
0.124878 0.124878 0.124878
0.129089 0.129089 0.129089
0.133331 0.133331 0.133331
0.137543 0.137543 0.137543
0.141754 0.141754 0.141754
0.146088 0.146088 0.146088
0.150543 0.150543 0.150543
0.154816 0.154816 0.154816
0.159119 0.159119 0.159119
0.163422 0.163422 0.163422
0.167755 0.167755 0.167755
0.172333 0.172333 0.172333
0.176666 0.176666 0.176666
0.181030 0.181030 0.181030
0.185394 0.185394 0.185394
0.190002 0.190002 0.190002
0.194427 0.194427 0.194427
0.198792 0.198792 0.198792
0.203247 0.203247 0.203247
0.207916 0.207916 0.207916
0.212372 0.212372 0.212372
0.216827 0.216827 0.216827
0.221558 0.221558 0.221558
0.000000 0.000000 0.000000
0.000000 0.000000 0.000000
0.000000 0.000000 0.000000
0.000000 0.000000 0.000000
0.000000 0.000000 0.000000
0.000000 0.000000 0.000000
0.000000 0.000000 0.000000
0.000000 0.000000 0.000000
0.000000 0.000000 0.000000
0.000000 0.000000 0.000000
0.000000 0.000000 0.000000
0.000153 0.000153 0.000153
0.004639 0.004639 0.004639
0.008850 0.008850 0.008850
0.013000 0.013000 0.013000
0.017090 0.017090 0.017090
0.021179 0.021179 0.021179
0.025238 0.025238 0.025238
0.029327 0.029327 0.029327
0.033325 0.033325 0.033325
0.037384 0.037384 0.037384
0.041443 0.041443 0.041443
0.045471 0.045471 0.045471
0.049469 0.049469 0.049469
0.053528 0.053528 0.053528
0.057648 0.057648 0.057648
0.061890 0.061890 0.061890
0.065918 0.065918 0.065918
0.070007 0.070007 0.070007
0.074066 0.074066 0.074066
0.078125 0.078125 0.078125
0.082184 0.082184 0.082184
0.086304 0.086304 0.086304
0.090393 0.090393 0.090393
0.094513 0.094513 0.094513
0.098816 0.098816 0.098816
0.103027 0.103027 0.103027
0.107178 0.107178 0.107178
0.111298 0.111298 0.111298
0.115479 0.115479 0.115479
0.119659 0.119659 0.119659
0.123840 0.123840 0.123840
0.128296 0.128296 0.128296
0.132538 0.132538 0.132538
0.136719 0.136719 0.136719
0.140991 0.140991 0.140991
0.145233 0.145233 0.145233
0.149475 0.149475 0.149475
0.154022 0.154022 0.154022
0.158295 0.158295 0.158295
0.162598 0.162598 0.162598
0.166901 0.166901 0.166901
0.171326 0.171326 0.171326
0.175873 0.175873 0.175873
0.180206 0.180206 0.180206
0.184570 0.184570 0.184570
0.188934 0.188934 0.188934
0.193573 0.193573 0.193573
0.197998 0.197998 0.197998
0.202393 0.202393 0.202393
0.206848 0.206848 0.206848
0.211517 0.211517 0.211517
0.215973 0.215973 0.215973
0.220459 0.220459 0.220459
0.000061 0.000061 0.000061
0.000092 0.000092 0.000092
0.000122 0.000122 0.000122
0.000122 0.000122 0.000122
0.000183 0.000183 0.000183
0.000183 0.000183 0.000183
0.000183 0.000183 0.000183
0.000214 0.000214 0.000214
0.000244 0.000244 0.000244
0.000275 0.000275 0.000275
0.000427 0.000427 0.000427
0.000366 0.000366 0.000366
0.004211 0.004211 0.004211
0.008423 0.008423 0.008423
0.012573 0.012573 0.012573
0.016693 0.016693 0.016693
0.020721 0.020721 0.020721
0.024780 0.024780 0.024780
0.028870 0.028870 0.028870
0.032898 0.032898 0.032898
0.036987 0.036987 0.036987
0.041016 0.041016 0.041016
0.044983 0.044983 0.044983
0.048950 0.048950 0.048950
0.053009 0.053009 0.053009
0.057068 0.057068 0.057068
0.061127 0.061127 0.061127
0.065186 0.065186 0.065186
0.069427 0.069427 0.069427
0.073486 0.073486 0.073486
0.077606 0.077606 0.077606
0.081604 0.081604 0.081604
0.085693 0.085693 0.085693
0.089783 0.089783 0.089783
0.093933 0.093933 0.093933
0.098053 0.098053 0.098053
0.102203 0.102203 0.102203
0.106567 0.106567 0.106567
0.110718 0.110718 0.110718
0.114868 0.114868 0.114868
0.119049 0.119049 0.119049
0.123260 0.123260 0.123260
0.127380 0.127380 0.127380
0.131714 0.131714 0.131714
0.136078 0.136078 0.136078
0.140320 0.140320 0.140320
0.144501 0.144501 0.144501
0.148773 0.148773 0.148773
0.153046 0.153046 0.153046
0.157623 0.157623 0.157623
0.161865 0.161865 0.161865
0.166168 0.166168 0.166168
0.170502 0.170502 0.170502
0.174866 0.174866 0.174866
0.179443 0.179443 0.179443
0.183807 0.183807 0.183807
0.188171 0.188171 0.188171
0.192566 0.192566 0.192566
0.197205 0.197205 0.197205
0.201599 0.201599 0.201599
0.206024 0.206024 0.206024
0.210510 0.210510 0.210510
0.215149 0.215149 0.215149
0.219604 0.219604 0.219604
0.000092 0.000092 0.000092
0.000061 0.000061 0.000061
0.000122 0.000122 0.000122
0.000122 0.000122 0.000122
0.000153 0.000153 0.000153
0.000153 0.000153 0.000153
0.000183 0.000183 0.000183
0.000214 0.000214 0.000214
0.000244 0.000244 0.000244
0.000275 0.000275 0.000275
0.000305 0.000305 0.000305
0.000366 0.000366 0.000366
0.003265 0.003265 0.003265
0.007629 0.007629 0.007629
0.011780 0.011780 0.011780
0.015930 0.015930 0.015930
0.019897 0.019897 0.019897
0.024048 0.024048 0.024048
0.028076 0.028076 0.028076
0.032104 0.032104 0.032104
0.036133 0.036133 0.036133
0.040161 0.040161 0.040161
0.044220 0.044220 0.044220
0.048248 0.048248 0.048248
0.052246 0.052246 0.052246
0.056305 0.056305 0.056305
0.060333 0.060333 0.060333
0.064362 0.064362 0.064362
0.068420 0.068420 0.068420
0.072418 0.072418 0.072418
0.076782 0.076782 0.076782
0.080872 0.080872 0.080872
0.084930 0.084930 0.084930
0.089050 0.089050 0.089050
0.093140 0.093140 0.093140
0.097260 0.097260 0.097260
0.101349 0.101349 0.101349
0.105530 0.105530 0.105530
0.109680 0.109680 0.109680
0.114014 0.114014 0.114014
0.118225 0.118225 0.118225
0.122406 0.122406 0.122406
0.126587 0.126587 0.126587
0.130798 0.130798 0.130798
0.135010 0.135010 0.135010
0.139496 0.139496 0.139496
0.143707 0.143707 0.143707
0.147980 0.147980 0.147980
0.152252 0.152252 0.152252
0.156525 0.156525 0.156525
0.161041 0.161041 0.161041
0.165375 0.165375 0.165375
0.169708 0.169708 0.169708
0.173981 0.173981 0.173981
0.178375 0.178375 0.178375
0.182983 0.182983 0.182983
0.187347 0.187347 0.187347
0.191711 0.191711 0.191711
0.196106 0.196106 0.196106
0.200775 0.200775 0.200775
0.205200 0.205200 0.205200
0.209625 0.209625 0.209625
0.214233 0.214233 0.214233
0.218781 0.218781 0.218781
0.000061 0.000061 0.000061
0.000122 0.000122 0.000122
0.000122 0.000122 0.000122
0.000092 0.000092 0.000092
0.000153 0.000153 0.000153
0.000183 0.000183 0.000183
0.000183 0.000183 0.000183
0.000214 0.000214 0.000214
0.000153 0.000153 0.000153
0.000183 0.000183 0.000183
0.000305 0.000305 0.000305
0.000336 0.000336 0.000336
0.002106 0.002106 0.002106
0.006470 0.006470 0.006470
0.010620 0.010620 0.010620
0.014771 0.014771 0.014771
0.018860 0.018860 0.018860
0.023010 0.023010 0.023010
0.027161 0.027161 0.027161
0.031250 0.031250 0.031250
0.035431 0.035431 0.035431
0.039429 0.039429 0.039429
0.043365 0.043365 0.043365
0.047455 0.047455 0.047455
0.051422 0.051422 0.051422
0.055420 0.055420 0.055420
0.059570 0.059570 0.059570
0.063599 0.063599 0.063599
0.067627 0.067627 0.067627
0.071655 0.071655 0.071655
0.075775 0.075775 0.075775
0.079773 0.079773 0.079773
0.083862 0.083862 0.083862
0.088196 0.088196 0.088196
0.092316 0.092316 0.092316
0.096527 0.096527 0.096527
0.100616 0.100616 0.100616
0.104706 0.104706 0.104706
0.108795 0.108795 0.108795
0.112976 0.112976 0.112976
0.117432 0.117432 0.117432
0.121613 0.121613 0.121613
0.125824 0.125824 0.125824
0.129974 0.129974 0.129974
0.134186 0.134186 0.134186
0.138458 0.138458 0.138458
0.142822 0.142822 0.142822
0.147156 0.147156 0.147156
0.151459 0.151459 0.151459
0.155701 0.155701 0.155701
0.160004 0.160004 0.160004
0.164520 0.164520 0.164520
0.168884 0.168884 0.168884
0.173157 0.173157 0.173157
0.177521 0.177521 0.177521
0.181915 0.181915 0.181915
0.186523 0.186523 0.186523
0.190887 0.190887 0.190887
0.195282 0.195282 0.195282
0.199677 0.199677 0.199677
0.204346 0.204346 0.204346
0.208771 0.208771 0.208771
0.213226 0.213226 0.213226
0.217926 0.217926 0.217926
0.000061 0.000061 0.000061
0.000092 0.000092 0.000092
0.000092 0.000092 0.000092
0.000153 0.000153 0.000153
0.000122 0.000122 0.000122
0.000122 0.000122 0.000122
0.000122 0.000122 0.000122
0.000214 0.000214 0.000214
0.000244 0.000244 0.000244
0.000183 0.000183 0.000183
0.000305 0.000305 0.000305
0.000336 0.000336 0.000336
0.001282 0.001282 0.001282
0.005676 0.005676 0.005676
0.009857 0.009857 0.009857
0.014099 0.014099 0.014099
0.018097 0.018097 0.018097
0.022156 0.022156 0.022156
0.026215 0.026215 0.026215
0.030212 0.030212 0.030212
0.034271 0.034271 0.034271
0.038330 0.038330 0.038330
0.042450 0.042450 0.042450
0.046600 0.046600 0.046600
0.050598 0.050598 0.050598
0.054688 0.054688 0.054688
0.058716 0.058716 0.058716
0.062744 0.062744 0.062744
0.066833 0.066833 0.066833
0.070923 0.070923 0.070923
0.074951 0.074951 0.074951
0.079041 0.079041 0.079041
0.083099 0.083099 0.083099
0.087189 0.087189 0.087189
0.091339 0.091339 0.091339
0.095673 0.095673 0.095673
0.099854 0.099854 0.099854
0.103912 0.103912 0.103912
0.108093 0.108093 0.108093
0.112213 0.112213 0.112213
0.116425 0.116425 0.116425
0.120544 0.120544 0.120544
0.124969 0.124969 0.124969
0.129211 0.129211 0.129211
0.133453 0.133453 0.133453
0.137665 0.137665 0.137665
0.141815 0.141815 0.141815
0.146179 0.146179 0.146179
0.150604 0.150604 0.150604
0.154907 0.154907 0.154907
0.159180 0.159180 0.159180
0.163483 0.163483 0.163483
0.167816 0.167816 0.167816
0.172333 0.172333 0.172333
0.176636 0.176636 0.176636
0.181030 0.181030 0.181030
0.185394 0.185394 0.185394
0.190002 0.190002 0.190002
0.194427 0.194427 0.194427
0.198792 0.198792 0.198792
0.203278 0.203278 0.203278
0.207947 0.207947 0.207947
0.212372 0.212372 0.212372
0.216827 0.216827 0.216827
0.000031 0.000031 0.000031
0.000092 0.000092 0.000092
0.000092 0.000092 0.000092
0.000122 0.000122 0.000122
0.000122 0.000122 0.000122
0.000122 0.000122 0.000122
0.000153 0.000153 0.000153
0.000153 0.000153 0.000153
0.000153 0.000153 0.000153
0.000183 0.000183 0.000183
0.000183 0.000183 0.000183
0.000214 0.000214 0.000214
0.000397 0.000397 0.000397
0.004883 0.004883 0.004883
0.009064 0.009064 0.009064
0.013214 0.013214 0.013214
0.017303 0.017303 0.017303
0.021393 0.021393 0.021393
0.025452 0.025452 0.025452
0.029510 0.029510 0.029510
0.033508 0.033508 0.033508
0.037537 0.037537 0.037537
0.041595 0.041595 0.041595
0.045593 0.045593 0.045593
0.049622 0.049622 0.049622
0.053650 0.053650 0.053650
0.057739 0.057739 0.057739
0.062042 0.062042 0.062042
0.066071 0.066071 0.066071
0.070160 0.070160 0.070160
0.074219 0.074219 0.074219
0.078247 0.078247 0.078247
0.082306 0.082306 0.082306
0.086426 0.086426 0.086426
0.090515 0.090515 0.090515
0.094635 0.094635 0.094635
0.098938 0.098938 0.098938
0.103149 0.103149 0.103149
0.107239 0.107239 0.107239
0.111389 0.111389 0.111389
0.115570 0.115570 0.115570
0.119751 0.119751 0.119751
0.123932 0.123932 0.123932
0.128387 0.128387 0.128387
0.132629 0.132629 0.132629
0.136810 0.136810 0.136810
0.141052 0.141052 0.141052
0.145294 0.145294 0.145294
0.149536 0.149536 0.149536
0.154083 0.154083 0.154083
0.158356 0.158356 0.158356
0.162659 0.162659 0.162659
0.166962 0.166962 0.166962
0.171326 0.171326 0.171326
0.175873 0.175873 0.175873
0.180206 0.180206 0.180206
0.184570 0.184570 0.184570
0.188934 0.188934 0.188934
0.193573 0.193573 0.193573
0.197998 0.197998 0.197998
0.202423 0.202423 0.202423
0.206879 0.206879 0.206879
0.211517 0.211517 0.211517
0.215973 0.215973 0.215973
0.000061 0.000061 0.000061
0.000061 0.000061 0.000061
0.000061 0.000061 0.000061
0.000122 0.000122 0.000122
0.000061 0.000061 0.000061
0.000153 0.000153 0.000153
0.000153 0.000153 0.000153
0.000153 0.000153 0.000153
0.000183 0.000183 0.000183
0.000092 0.000092 0.000092
0.000183 0.000183 0.000183
0.000122 0.000122 0.000122
0.000244 0.000244 0.000244
0.003967 0.003967 0.003967
0.008331 0.008331 0.008331
0.012451 0.012451 0.012451
0.016571 0.016571 0.016571
0.020508 0.020508 0.020508
0.024689 0.024689 0.024689
0.028748 0.028748 0.028748
0.032806 0.032806 0.032806
0.036774 0.036774 0.036774
0.040802 0.040802 0.040802
0.044861 0.044861 0.044861
0.048889 0.048889 0.048889
0.052856 0.052856 0.052856
0.056946 0.056946 0.056946
0.060944 0.060944 0.060944
0.065033 0.065033 0.065033
0.069366 0.069366 0.069366
0.073425 0.073425 0.073425
0.077515 0.077515 0.077515
0.081543 0.081543 0.081543
0.085632 0.085632 0.085632
0.089722 0.089722 0.089722
0.093811 0.093811 0.093811
0.097931 0.097931 0.097931
0.102112 0.102112 0.102112
0.106476 0.106476 0.106476
0.110657 0.110657 0.110657
0.114807 0.114807 0.114807
0.118988 0.118988 0.118988
0.123169 0.123169 0.123169
0.127350 0.127350 0.127350
0.131622 0.131622 0.131622
0.135986 0.135986 0.135986
0.140259 0.140259 0.140259
0.144470 0.144470 0.144470
0.148712 0.148712 0.148712
0.153015 0.153015 0.153015
0.157562 0.157562 0.157562
0.161835 0.161835 0.161835
0.166138 0.166138 0.166138
0.170471 0.170471 0.170471
0.174774 0.174774 0.174774
0.179382 0.179382 0.179382
0.183746 0.183746 0.183746
0.188110 0.188110 0.188110
0.192505 0.192505 0.192505
0.197144 0.197144 0.197144
0.201569 0.201569 0.201569
0.206024 0.206024 0.206024
0.210480 0.210480 0.210480
0.215118 0.215118 0.215118
0.000092 0.000092 0.000092
0.000122 0.000122 0.000122
0.000122 0.000122 0.000122
0.000122 0.000122 0.000122
0.000061 0.000061 0.000061
0.000092 0.000092 0.000092
0.000153 0.000153 0.000153
0.000092 0.000092 0.000092
0.000092 0.000092 0.000092
0.000092 0.000092 0.000092
0.000214 0.000214 0.000214
0.000214 0.000214 0.000214
0.000244 0.000244 0.000244
0.003265 0.003265 0.003265
0.007538 0.007538 0.007538
0.011566 0.011566 0.011566
0.015717 0.015717 0.015717
0.019897 0.019897 0.019897
0.023956 0.023956 0.023956
0.027954 0.027954 0.027954
0.032013 0.032013 0.032013
0.036041 0.036041 0.036041
0.039948 0.039948 0.039948
0.044006 0.044006 0.044006
0.048065 0.048065 0.048065
0.052094 0.052094 0.052094
0.056122 0.056122 0.056122
0.060150 0.060150 0.060150
0.064301 0.064301 0.064301
0.068359 0.068359 0.068359
0.072327 0.072327 0.072327
0.076630 0.076630 0.076630
0.080719 0.080719 0.080719
0.084808 0.084808 0.084808
0.088989 0.088989 0.088989
0.093018 0.093018 0.093018
0.097137 0.097137 0.097137
0.101257 0.101257 0.101257
0.105438 0.105438 0.105438
0.109589 0.109589 0.109589
0.113983 0.113983 0.113983
0.118134 0.118134 0.118134
0.122375 0.122375 0.122375
0.126556 0.126556 0.126556
0.130768 0.130768 0.130768
0.134918 0.134918 0.134918
0.139404 0.139404 0.139404
0.143677 0.143677 0.143677
0.147949 0.147949 0.147949
0.152191 0.152191 0.152191
0.156494 0.156494 0.156494
0.160980 0.160980 0.160980
0.165314 0.165314 0.165314
0.169678 0.169678 0.169678
0.173950 0.173950 0.173950
0.178314 0.178314 0.178314
0.182922 0.182922 0.182922
0.187286 0.187286 0.187286
0.191650 0.191650 0.191650
0.196075 0.196075 0.196075
0.200745 0.200745 0.200745
0.205200 0.205200 0.205200
0.209595 0.209595 0.209595
0.214203 0.214203 0.214203
0.000061 0.000061 0.000061
0.000061 0.000061 0.000061
0.000061 0.000061 0.000061
0.000153 0.000153 0.000153
0.000092 0.000092 0.000092
0.000092 0.000092 0.000092
0.000092 0.000092 0.000092
0.000092 0.000092 0.000092
0.000092 0.000092 0.000092
0.000092 0.000092 0.000092
0.000092 0.000092 0.000092
0.000122 0.000122 0.000122
0.000244 0.000244 0.000244
0.001984 0.001984 0.001984
0.006348 0.006348 0.006348
0.010529 0.010529 0.010529
0.014679 0.014679 0.014679
0.018738 0.018738 0.018738
0.022797 0.022797 0.022797
0.026947 0.026947 0.026947
0.031250 0.031250 0.031250
0.035217 0.035217 0.035217
0.039337 0.039337 0.039337
0.043243 0.043243 0.043243
0.047272 0.047272 0.047272
0.051331 0.051331 0.051331
0.055359 0.055359 0.055359
0.059387 0.059387 0.059387
0.063446 0.063446 0.063446
0.067474 0.067474 0.067474
0.071564 0.071564 0.071564
0.075623 0.075623 0.075623
0.079712 0.079712 0.079712
0.083862 0.083862 0.083862
0.088135 0.088135 0.088135
0.092255 0.092255 0.092255
0.096405 0.096405 0.096405
0.100494 0.100494 0.100494
0.104645 0.104645 0.104645
0.108795 0.108795 0.108795
0.112946 0.112946 0.112946
0.117340 0.117340 0.117340
0.121521 0.121521 0.121521
0.125732 0.125732 0.125732
0.129913 0.129913 0.129913
0.134125 0.134125 0.134125
0.138367 0.138367 0.138367
0.142792 0.142792 0.142792
0.147095 0.147095 0.147095
0.151428 0.151428 0.151428
0.155640 0.155640 0.155640
0.159943 0.159943 0.159943
0.164490 0.164490 0.164490
0.168823 0.168823 0.168823
0.173126 0.173126 0.173126
0.177490 0.177490 0.177490
0.181854 0.181854 0.181854
0.186462 0.186462 0.186462
0.190826 0.190826 0.190826
0.195251 0.195251 0.195251
0.199646 0.199646 0.199646
0.204315 0.204315 0.204315
0.208740 0.208740 0.208740
0.213196 0.213196 0.213196
0.000061 0.000061 0.000061
0.000061 0.000061 0.000061
0.000061 0.000061 0.000061
0.000092 0.000092 0.000092
0.000092 0.000092 0.000092
0.000092 0.000092 0.000092
0.000092 0.000092 0.000092
0.000092 0.000092 0.000092
0.000092 0.000092 0.000092
0.000092 0.000092 0.000092
0.000122 0.000122 0.000122
0.000122 0.000122 0.000122
0.000122 0.000122 0.000122
0.001160 0.001160 0.001160
0.005554 0.005554 0.005554
0.009766 0.009766 0.009766
0.013885 0.013885 0.013885
0.018005 0.018005 0.018005
0.022034 0.022034 0.022034
0.026093 0.026093 0.026093
0.030121 0.030121 0.030121
0.034180 0.034180 0.034180
0.038239 0.038239 0.038239
0.042358 0.042358 0.042358
0.046509 0.046509 0.046509
0.050537 0.050537 0.050537
0.054626 0.054626 0.054626
0.058655 0.058655 0.058655
0.062714 0.062714 0.062714
0.066742 0.066742 0.066742
0.070831 0.070831 0.070831
0.074860 0.074860 0.074860
0.078979 0.078979 0.078979
0.083038 0.083038 0.083038
0.087128 0.087128 0.087128
0.091278 0.091278 0.091278
0.095612 0.095612 0.095612
0.099731 0.099731 0.099731
0.103851 0.103851 0.103851
0.108002 0.108002 0.108002
0.112183 0.112183 0.112183
0.116333 0.116333 0.116333
0.120514 0.120514 0.120514
0.124908 0.124908 0.124908
0.129120 0.129120 0.129120
0.133362 0.133362 0.133362
0.137573 0.137573 0.137573
0.141785 0.141785 0.141785
0.146118 0.146118 0.146118
0.150574 0.150574 0.150574
