risoamaro.CUBE
#Created by: Adobe Photoshop Export Color Lookup Plugin
TITLE "risoamaro_v1.psd"
#LUT size
LUT_3D_SIZE 8
#data domain
DOMAIN_MIN 0.0 0.0 0.0
DOMAIN_MAX 1.0 1.0 1.0
#LUT data points
0.000000 0.000000 0.000000
0.000000 0.000000 0.000000
0.032623 0.032623 0.032623
0.069214 0.069214 0.069214
0.106415 0.106415 0.106415
0.144440 0.144440 0.144440
0.183746 0.183746 0.183746
0.224091 0.224091 0.224091
0.000031 0.000031 0.000031
0.000183 0.000183 0.000183
0.025452 0.025452 0.025452
0.062042 0.062042 0.062042
0.098938 0.098938 0.098938
0.136810 0.136810 0.136810
0.175873 0.175873 0.175873
0.215973 0.215973 0.215973
0.000092 0.000092 0.000092
0.002960 0.002960 0.002960
0.017883 0.017883 0.017883
0.054626 0.054626 0.054626
0.091278 0.091278 0.091278
0.129120 0.129120 0.129120
0.167755 0.167755 0.167755
0.207855 0.207855 0.207855
0.002930 0.002930 0.002930
0.017853 0.017853 0.017853
0.032562 0.032562 0.032562
0.047180 0.047180 0.047180
0.083710 0.083710 0.083710
0.121490 0.121490 0.121490
0.159912 0.159912 0.159912
0.199615 0.199615 0.199615
0.017822 0.017822 0.017822
0.032532 0.032532 0.032532
0.047150 0.047150 0.047150
0.061829 0.061829 0.061829
0.076508 0.076508 0.076508
0.113892 0.113892 0.113892
0.152191 0.152191 0.152191
0.191650 0.191650 0.191650
0.032501 0.032501 0.032501
0.047150 0.047150 0.047150
0.061798 0.061798 0.061798
0.076416 0.076416 0.076416
0.091278 0.091278 0.091278
0.106445 0.106445 0.106445
0.144379 0.144379 0.144379
0.183716 0.183716 0.183716
0.047211 0.047211 0.047211
0.061859 0.061859 0.061859
0.076508 0.076508 0.076508
0.091156 0.091156 0.091156
0.106415 0.106415 0.106415
0.121460 0.121460 0.121460
0.136780 0.136780 0.136780
0.175842 0.175842 0.175842
0.061737 0.061737 0.061737
0.076294 0.076294 0.076294
0.091064 0.091064 0.091064
0.106293 0.106293 0.106293
0.121399 0.121399 0.121399
0.136658 0.136658 0.136658
0.152100 0.152100 0.152100
0.167694 0.167694 0.167694
0.000000 0.000000 0.000000
0.000000 0.000000 0.000000
0.000000 0.000000 0.000000
0.032623 0.032623 0.032623
0.069214 0.069214 0.069214
0.106415 0.106415 0.106415
0.144440 0.144440 0.144440
0.183746 0.183746 0.183746
0.000000 0.000000 0.000000
0.106506 0.106506 0.106506
0.144470 0.144470 0.144470
0.183777 0.183777 0.183777
0.224091 0.224091 0.224091
0.265747 0.265747 0.265747
0.308624 0.308624 0.308624
0.352814 0.352814 0.352814
0.000031 0.000031 0.000031
0.121460 0.121460 0.121460
0.136749 0.136749 0.136749
0.175873 0.175873 0.175873
0.215973 0.215973 0.215973
0.257446 0.257446 0.257446
0.300049 0.300049 0.300049
0.344086 0.344086 0.344086
0.000000 0.000000 0.000000
0.136688 0.136688 0.136688
0.152130 0.152130 0.152130
0.167755 0.167755 0.167755
0.207855 0.207855 0.207855
0.248932 0.248932 0.248932
0.291321 0.291321 0.291321
0.335083 0.335083 0.335083
0.002930 0.002930 0.002930
0.152100 0.152100 0.152100
0.167694 0.167694 0.167694
0.183685 0.183685 0.183685
0.199615 0.199615 0.199615
0.240631 0.240631 0.240631
0.282837 0.282837 0.282837
0.326172 0.326172 0.326172
0.017944 0.017944 0.017944
0.167633 0.167633 0.167633
0.183685 0.183685 0.183685
0.199585 0.199585 0.199585
0.215942 0.215942 0.215942
0.232452 0.232452 0.232452
0.274384 0.274384 0.274384
0.317474 0.317474 0.317474
0.032684 0.032684 0.032684
0.183655 0.183655 0.183655
0.199585 0.199585 0.199585
0.215881 0.215881 0.215881
0.232422 0.232422 0.232422
0.248901 0.248901 0.248901
0.265747 0.265747 0.265747
0.308502 0.308502 0.308502
0.047119 0.047119 0.047119
0.199524 0.199524 0.199524
0.215851 0.215851 0.215851
0.232391 0.232391 0.232391
0.248840 0.248840 0.248840
0.265717 0.265717 0.265717
0.282776 0.282776 0.282776
0.300018 0.300018 0.300018
0.000000 0.000000 0.000000
0.000000 0.000000 0.000000
0.000000 0.000000 0.000000
0.000000 0.000000 0.000000
0.032623 0.032623 0.032623
0.069214 0.069214 0.069214
0.106415 0.106415 0.106415
0.144440 0.144440 0.144440
0.000000 0.000000 0.000000
0.091400 0.091400 0.091400
0.106506 0.106506 0.106506
0.144440 0.144440 0.144440
0.183777 0.183777 0.183777
0.224091 0.224091 0.224091
0.265747 0.265747 0.265747
0.308624 0.308624 0.308624
0.000000 0.000000 0.000000
0.106476 0.106476 0.106476
0.265778 0.265778 0.265778
0.308624 0.308624 0.308624
0.352875 0.352875 0.352875
0.398285 0.398285 0.398285
0.445068 0.445068 0.445068
0.493164 0.493164 0.493164
0.000000 0.000000 0.000000
0.121460 0.121460 0.121460
0.282806 0.282806 0.282806
0.300049 0.300049 0.300049
0.344086 0.344086 0.344086
0.389282 0.389282 0.389282
0.435608 0.435608 0.435608
0.483368 0.483368 0.483368
0.000000 0.000000 0.000000
0.136688 0.136688 0.136688
0.300018 0.300018 0.300018
0.317474 0.317474 0.317474
0.335083 0.335083 0.335083
0.380035 0.380035 0.380035
0.426178 0.426178 0.426178
0.473663 0.473663 0.473663
0.002930 0.002930 0.002930
0.152100 0.152100 0.152100
0.317444 0.317444 0.317444
0.335052 0.335052 0.335052
0.352844 0.352844 0.352844
0.370850 0.370850 0.370850
0.416962 0.416962 0.416962
0.464233 0.464233 0.464233
0.017944 0.017944 0.017944
0.167694 0.167694 0.167694
0.334991 0.334991 0.334991
0.352783 0.352783 0.352783
0.370758 0.370758 0.370758
0.389160 0.389160 0.389160
0.407471 0.407471 0.407471
0.454529 0.454529 0.454529
0.032501 0.032501 0.032501
0.183624 0.183624 0.183624
0.352753 0.352753 0.352753
0.370758 0.370758 0.370758
0.389191 0.389191 0.389191
0.407532 0.407532 0.407532
0.426147 0.426147 0.426147
0.445099 0.445099 0.445099
0.000000 0.000000 0.000000
0.000000 0.000000 0.000000
0.000000 0.000000 0.000000
0.000000 0.000000 0.000000
0.000000 0.000000 0.000000
0.032623 0.032623 0.032623
0.069214 0.069214 0.069214
0.106415 0.106415 0.106415
0.000000 0.000000 0.000000
0.076752 0.076752 0.076752
0.091400 0.091400 0.091400
0.106506 0.106506 0.106506
0.144501 0.144501 0.144501
0.183777 0.183777 0.183777
0.224091 0.224091 0.224091
0.265747 0.265747 0.265747
0.000000 0.000000 0.000000
0.091278 0.091278 0.091278
0.248962 0.248962 0.248962
0.265778 0.265778 0.265778
0.308685 0.308685 0.308685
0.352905 0.352905 0.352905
0.398285 0.398285 0.398285
0.445129 0.445129 0.445129
0.000000 0.000000 0.000000
0.106415 0.106415 0.106415
0.265778 0.265778 0.265778
0.445129 0.445129 0.445129
0.493164 0.493164 0.493164
0.542328 0.542328 0.542328
0.590698 0.590698 0.590698
0.637756 0.637756 0.637756
0.000000 0.000000 0.000000
0.121490 0.121490 0.121490
0.282837 0.282837 0.282837
0.464294 0.464294 0.464294
0.483368 0.483368 0.483368
0.532501 0.532501 0.532501
0.581085 0.581085 0.581085
0.628418 0.628418 0.628418
0.000000 0.000000 0.000000
0.136719 0.136719 0.136719
0.300018 0.300018 0.300018
0.483337 0.483337 0.483337
0.502930 0.502930 0.502930
0.522644 0.522644 0.522644
0.571289 0.571289 0.571289
0.618988 0.618988 0.618988
0.003174 0.003174 0.003174
0.152161 0.152161 0.152161
0.317413 0.317413 0.317413
0.502686 0.502686 0.502686
0.522461 0.522461 0.522461
0.542084 0.542084 0.542084
0.561584 0.561584 0.561584
0.609344 0.609344 0.609344
0.017822 0.017822 0.017822
0.167633 0.167633 0.167633
0.335022 0.335022 0.335022
0.522552 0.522552 0.522552
0.542114 0.542114 0.542114
0.561646 0.561646 0.561646
0.581055 0.581055 0.581055
0.600250 0.600250 0.600250
0.000000 0.000000 0.000000
0.000000 0.000000 0.000000
0.000000 0.000000 0.000000
0.000000 0.000000 0.000000
0.000000 0.000000 0.000000
0.000000 0.000000 0.000000
0.032623 0.032623 0.032623
0.069214 0.069214 0.069214
0.000000 0.000000 0.000000
0.062042 0.062042 0.062042
0.076752 0.076752 0.076752
0.091339 0.091339 0.091339
0.106476 0.106476 0.106476
0.144470 0.144470 0.144470
0.183777 0.183777 0.183777
0.224091 0.224091 0.224091
0.000000 0.000000 0.000000
0.076630 0.076630 0.076630
0.232513 0.232513 0.232513
0.248932 0.248932 0.248932
0.265778 0.265778 0.265778
0.308594 0.308594 0.308594
0.352875 0.352875 0.352875
0.398285 0.398285 0.398285
0.000000 0.000000 0.000000
0.091217 0.091217 0.091217
0.248932 0.248932 0.248932
0.426178 0.426178 0.426178
0.445129 0.445129 0.445129
0.493103 0.493103 0.493103
0.542328 0.542328 0.542328
0.590698 0.590698 0.590698
0.000000 0.000000 0.000000
0.106415 0.106415 0.106415
0.265778 0.265778 0.265778
0.445129 0.445129 0.445129
0.637787 0.637787 0.637787
0.683136 0.683136 0.683136
0.726776 0.726776 0.726776
0.768616 0.768616 0.768616
0.000000 0.000000 0.000000
0.121490 0.121490 0.121490
0.282806 0.282806 0.282806
0.464264 0.464264 0.464264
0.656006 0.656006 0.656006
0.674194 0.674194 0.674194
0.718201 0.718201 0.718201
0.760345 0.760345 0.760345
0.000183 0.000183 0.000183
0.136780 0.136780 0.136780
0.299957 0.299957 0.299957
0.483185 0.483185 0.483185
0.674072 0.674072 0.674072
0.691803 0.691803 0.691803
0.709290 0.709290 0.709290
0.751892 0.751892 0.751892
0.002930 0.002930 0.002930
0.152100 0.152100 0.152100
0.317444 0.317444 0.317444
0.502838 0.502838 0.502838
0.692017 0.692017 0.692017
0.709503 0.709503 0.709503
0.726715 0.726715 0.726715
0.743927 0.743927 0.743927
0.000000 0.000000 0.000000
0.000000 0.000000 0.000000
0.000000 0.000000 0.000000
0.000000 0.000000 0.000000
0.000000 0.000000 0.000000
0.000000 0.000000 0.000000
0.000000 0.000000 0.000000
0.032623 0.032623 0.032623
0.000000 0.000000 0.000000
0.047455 0.047455 0.047455
0.062103 0.062103 0.062103
0.076752 0.076752 0.076752
0.091400 0.091400 0.091400
0.106506 0.106506 0.106506
0.144470 0.144470 0.144470
0.183777 0.183777 0.183777
0.000000 0.000000 0.000000
0.061951 0.061951 0.061951
0.216034 0.216034 0.216034
0.232513 0.232513 0.232513
0.248962 0.248962 0.248962
0.265778 0.265778 0.265778
0.308594 0.308594 0.308594
0.352905 0.352905 0.352905
0.000000 0.000000 0.000000
0.076630 0.076630 0.076630
0.232513 0.232513 0.232513
0.407654 0.407654 0.407654
0.426208 0.426208 0.426208
0.445129 0.445129 0.445129
0.493103 0.493103 0.493103
0.542328 0.542328 0.542328
0.000000 0.000000 0.000000
0.091278 0.091278 0.091278
0.248962 0.248962 0.248962
0.426208 0.426208 0.426208
0.619080 0.619080 0.619080
0.637787 0.637787 0.637787
0.683136 0.683136 0.683136
0.726776 0.726776 0.726776
0.000000 0.000000 0.000000
0.106476 0.106476 0.106476
0.265778 0.265778 0.265778
0.445129 0.445129 0.445129
0.637787 0.637787 0.637787
0.808136 0.808136 0.808136
0.845551 0.845551 0.845551
0.880585 0.880585 0.880585
0.000092 0.000092 0.000092
0.121552 0.121552 0.121552
0.282776 0.282776 0.282776
0.464111 0.464111 0.464111
0.655792 0.655792 0.655792
0.823273 0.823273 0.823273
0.838013 0.838013 0.838013
0.873718 0.873718 0.873718
0.000000 0.000000 0.000000
0.136688 0.136688 0.136688
0.300018 0.300018 0.300018
0.483337 0.483337 0.483337
0.674286 0.674286 0.674286
0.838257 0.838257 0.838257
0.852692 0.852692 0.852692
0.866974 0.866974 0.866974
0.000000 0.000000 0.000000
0.000000 0.000000 0.000000
0.000000 0.000000 0.000000
0.000000 0.000000 0.000000
0.000000 0.000000 0.000000
0.000000 0.000000 0.000000
0.000000 0.000000 0.000000
0.000000 0.000000 0.000000
0.000000 0.000000 0.000000
0.032806 0.032806 0.032806
0.047455 0.047455 0.047455
0.062103 0.062103 0.062103
0.076691 0.076691 0.076691
0.091400 0.091400 0.091400
0.106476 0.106476 0.106476
0.144440 0.144440 0.144440
0.000000 0.000000 0.000000
0.047272 0.047272 0.047272
0.199707 0.199707 0.199707
0.216034 0.216034 0.216034
0.232513 0.232513 0.232513
0.248962 0.248962 0.248962
0.265778 0.265778 0.265778
0.308624 0.308624 0.308624
0.000000 0.000000 0.000000
0.061951 0.061951 0.061951
0.216034 0.216034 0.216034
0.389343 0.389343 0.389343
0.407654 0.407654 0.407654
0.426208 0.426208 0.426208
0.445129 0.445129 0.445129
0.493103 0.493103 0.493103
0.000000 0.000000 0.000000
0.076630 0.076630 0.076630
0.232513 0.232513 0.232513
0.407654 0.407654 0.407654
0.600372 0.600372 0.600372
0.619080 0.619080 0.619080
0.637787 0.637787 0.637787
0.683136 0.683136 0.683136
0.000000 0.000000 0.000000
0.091339 0.091339 0.091339
0.248962 0.248962 0.248962
0.426208 0.426208 0.426208
0.618988 0.618988 0.618988
0.792603 0.792603 0.792603
0.808258 0.808258 0.808258
0.845551 0.845551 0.845551
0.000000 0.000000 0.000000
0.106506 0.106506 0.106506
0.265747 0.265747 0.265747
0.445007 0.445007 0.445007
0.637573 0.637573 0.637573
0.807983 0.807983 0.807983
0.943451 0.943451 0.943451
0.971008 0.971008 0.971008
0.000000 0.000000 0.000000
0.121460 0.121460 0.121460
0.282806 0.282806 0.282806
0.464264 0.464264 0.464264
0.656006 0.656006 0.656006
0.823395 0.823395 0.823395
0.954895 0.954895 0.954895
0.966095 0.966095 0.966095
0.000000 0.000000 0.000000
0.000000 0.000000 0.000000
0.000000 0.000000 0.000000
0.000000 0.000000 0.000000
0.000000 0.000000 0.000000
0.000000 0.000000 0.000000
0.000000 0.000000 0.000000
0.000000 0.000000 0.000000
0.000000 0.000000 0.000000
0.018188 0.018188 0.018188
0.032806 0.032806 0.032806
0.047455 0.047455 0.047455
0.062103 0.062103 0.062103
0.076752 0.076752 0.076752
0.091400 0.091400 0.091400
0.106506 0.106506 0.106506
0.000000 0.000000 0.000000
0.032715 0.032715 0.032715
0.183838 0.183838 0.183838
0.199707 0.199707 0.199707
0.216034 0.216034 0.216034
0.232513 0.232513 0.232513
0.248962 0.248962 0.248962
0.265778 0.265778 0.265778
0.000000 0.000000 0.000000
0.047272 0.047272 0.047272
0.199707 0.199707 0.199707
0.370941 0.370941 0.370941
0.389343 0.389343 0.389343
0.407654 0.407654 0.407654
0.426208 0.426208 0.426208
0.445129 0.445129 0.445129
0.000000 0.000000 0.000000
0.061951 0.061951 0.061951
0.216034 0.216034 0.216034
0.389343 0.389343 0.389343
0.581116 0.581116 0.581116
0.600372 0.600372 0.600372
0.619080 0.619080 0.619080
0.637787 0.637787 0.637787
0.000000 0.000000 0.000000
0.076630 0.076630 0.076630
0.232513 0.232513 0.232513
0.407654 0.407654 0.407654
0.600281 0.600281 0.600281
0.776642 0.776642 0.776642
0.792480 0.792480 0.792480
0.808258 0.808258 0.808258
0.000000 0.000000 0.000000
0.091400 0.091400 0.091400
0.248962 0.248962 0.248962
0.426086 0.426086 0.426086
0.618866 0.618866 0.618866
0.792328 0.792328 0.792328
0.931427 0.931427 0.931427
0.943298 0.943298 0.943298
0.000000 0.000000 0.000000
0.106415 0.106415 0.106415
0.265778 0.265778 0.265778
0.445129 0.445129 0.445129
0.637787 0.637787 0.637787
0.808258 0.808258 0.808258
0.943604 0.943604 0.943604
1.000000 1.000000 1.000000
